!!!!SEGMENT: pl-stab--4a--001-008_dankowski-adalbert--vesper-beate-marie-vir-et-misericordia.krn
!!!cenid: 18xx:3497
!!!COM: Dankowski, Adalbert
!!!COM-rismID: pe30000793
!!!CDT: ~1760-~1836
!!!CNT: Polish
!!!OPR: Vesper Beate Marie Vir
!!!OTL: Et misericordia
!!!OMV: 008
!!!PDT:
!!!AGN: Sacred; Vespers
!!!YEC: Copyright 2022 Narodowy Instytut Fryderyka Chopina (https://polishscores.org)
!!!YEM: License CC-BY-4.0 (https://creativecommons.org/licenses/by/4.0)
!!!SMS-siglum: PL-STAb
!!!SMS-shelfmark: 4a
!!!SMS-shelfwork: 001-008 M
!!!SMS-variant:
!!!SMS-altvar:
!!!NIFC-rismSourceID: 301050556
!!!NIFC-rismChildID: 301050556
!!!NIFC-islandoraID: pl-stab:1091
!!!URL-pdf-islandora: https://repozytorium.nifc.pl/islandora/object/pl-stab%3A1091/datastream/PDF/view
!!!URL-scan: https://polish.musicsources.pl/pl/lokalizacje/galeria/rekopisy/4518 @EN{Scan on Polish Music Sources Website} @PL{Skany w portalu Dziedzictwo Muzyki Polskiej w otwartym dostępie}
!!!IIIF:
!!!ONB-nifc: UWAGA: części Nieszporów: 1. Domine ad adjuvandum, 2. Dixit Dominus, 3. Laudate pueri, 4. Laetatus sum, 5. Nisi Dominus, 6. Lauda Jerusalem, 7. Magnificat, 8. Et misericordia, 9. Gloria. UWAGA: Na f. 1v okładki zapisany głos org niezidentyfikowanych nieszporów
!!!AIN: 1 alto 1 bass 2 cor 1 organ 1 soprn 1 tenor 2 violn
!!!key:
**kern	**fba	**dynam	**kern	**dynam	**kern	**dynam	**kern	**kern	**kern	**text	**kern	**text	**kern	**kern
*	*	*	*group3	*	*group3	*	*group2	*group2	*group2	*	*group2	*	*group1	*group1
*part9	*	*	*part8	*	*part7	*	*part6	*part5	*part4	*	*part3	*	*part2	*part1
*staff9	*	*	*staff8	*	*staff7	*	*staff6	*staff5	*staff4	*	*staff3	*	*staff2	*staff1
*I"Organo	*	*	*I"Violino Secundo	*	*I"Violino Primo	*	*I"Baſso	*I"Tenor	*I"Alto	*	*I"Canto	*	*I"Cornu Secundo ex D.	*I"Cornu Primo ex D:
*	*	*	*mI"Violino II	*	*mI"Violino I	*	*mI"Basso	*mI"Tenore	*	*	*mI"Soprano	*	*mI"Cornu II inD	*mI"Cornu I inD
*I'	*	*	*I'	*	*I'	*	*	*	*I'	*	*I'	*	*	*
*mI'org	*	*	*mI'vl II	*	*mI'vl I	*	*	*	*mI'A	*	*mI'S	*	*	*
*Iorgan	*	*	*Ivioln	*	*Ivioln	*	*Ibass	*Itenor	*Ialto	*	*Isoprn	*	*Icor	*Icor
*ICklav	*	*	*ICstr	*	*ICstr	*	*ICvox	*ICvox	*ICvox	*	*ICvox	*	*ICbras	*ICbras
*IGcont	*	*	*	*	*	*	*	*	*	*	*	*	*	*
*clefF4	*	*	*clefG2	*	*clefG2	*	*clefF4	*clefC4	*clefC3	*	*clefC1	*	*clefG2	*clefG2
*	*	*	*	*	*	*	*	*mclefGv2	*mclefG2	*	*mclefG2	*	*	*
*	*	*	*	*	*	*	*	*	*	*	*	*	*ITrd6c10	*ITrd6c10
*k[f#]	*	*	*k[f#]	*	*k[f#]	*	*k[f#]	*k[f#]	*k[f#]	*	*k[f#]	*	*k[f#]	*k[f#]
*G:	*	*	*G:	*	*G:	*	*G:	*G:	*G:	*	*G:	*	*G:	*G:
*M3/4	*	*	*M3/4	*	*M3/4	*	*M3/4	*M3/4	*M3/4	*	*M3/4	*	*M3/4	*M3/4
*2\right	*	*	*2\right	*	*2\right	*	*2\right	*2\right	*2\right	*	*2\right	*	*2\right	*2\right
=1	=1	=1	=1	=1	=1	=1	=1	=1	=1	=1	=1	=1	=1	=1
!LO:MO:mod=!LO&colon;TX&colon;a&colon;B&colon;t=Andante	!	!	!LO:MO:mod=!LO&colon;TX&colon;a&colon;B&colon;t=Andante	!	!LO:MO:mod=!LO&colon;TX&colon;a&colon;B&colon;t=Andante	!	!LO:MO:mod=!LO&colon;TX&colon;a&colon;B&colon;t=Et Misericordia\nTacet	!LO:MO:mod=!LO&colon;TX&colon;a&colon;B&colon;t=Et Misericordia\nTacet	!LO:MO:mod=!LO&colon;TX&colon;a&colon;B&colon;t=Andante	!	!LO:MO:mod=!LO&colon;TX&colon;a&colon;B&colon;t=Andante	!	!LO:MO:mod=!LO&colon;TX&colon;a&colon;B&colon;t=Et Misericordia\nTacet	!LO:MO:mod=!LO&colon;TX&colon;a&colon;B&colon;t=Et Misericordia\nTacet
!LO:TX:a:i:t=andante	!	!	!LO:TX:a:i:t=andante	!	!LO:TX:a:i:t=andante	!	!LO:TX:a:i:t=Et Misericordia Tacet	!LO:TX:a:i:t=Et mise\nricordia\nTacet:color=red	!LO:TX:a:i:t=andante	!	!LO:TX:a:i:t=andante	!	!LO:TX:a:i:t=Et Misericordia Tacet	!LO:TX:a:i:t=Et Miſericordia Tacet
8G\L	.	.	2b/	.	2dd\	.	2.ryy	2.ryy	2.r	.	2.r	.	2.ryy	2.ryy
8G\	.	.	.	.	.	.	.	.	.	.	.	.	.	.
8G\	.	.	.	.	.	.	.	.	.	.	.	.	.	.
8G\	.	.	.	.	.	.	.	.	.	.	.	.	.	.
8G\	.	.	16g/LL	.	16b\LL	.	.	.	.	.	.	.	.	.
.	.	.	16f#/	.	16a\	.	.	.	.	.	.	.	.	.
!LO:MO:mod=!	!	!	!	!	!	!	!	!	!	!	!	!	!	!
!LO:TX:a:i:t=Solo	!	!	!	!	!	!	!	!	!	!	!	!	!	!
8G\J	.	.	16g/	.	16b\	.	.	.	.	.	.	.	.	.
.	.	.	16a/JJ	.	16cc\JJ	.	.	.	.	.	.	.	.	.
=2	=2	=2	=2	=2	=2	=2	=2	=2	=2	=2	=2	=2	=2	=2
!LO:MO:null:mod=!LO&colon;TX&colon;i&colon;t=Solo	!	!	!	!	!	!	!	!	!	!	!	!	!	!
!	!	!	!LO:TX:i:t=Solo	!	!LO:TX:i:t=Solo	!	!	!	!	!	!	!	!	!
8G\L	.	.	2b\	.	2dd\	.	2.ryy	2.ryy	2.r	.	2.r	.	2.ryy	2.ryy
8G\	.	.	.	.	.	.	.	.	.	.	.	.	.	.
8G\	.	.	.	.	.	.	.	.	.	.	.	.	.	.
8G\	.	.	.	.	.	.	.	.	.	.	.	.	.	.
8G\	6 4	.	8cc\L	.	8ee\L	.	.	.	.	.	.	.	.	.
8G\J	7 2	.	8a\J	.	8ff#\J	.	.	.	.	.	.	.	.	.
=3	=3	=3	=3	=3	=3	=3	=3	=3	=3	=3	=3	=3	=3	=3
!	!	!	!LO:MO:mod=(4.b	!	!	!	!	!	!	!	!	!	!	!
8G\L	8_ 3_	.	4.b\	.	(4.gg\	.	2.ryy	2.ryy	2.r	.	2.r	.	2.ryy	2.ryy
8G\	x x	.	.	.	.	.	.	.	.	.	.	.	.	.
8G\	x x	.	.	.	.	.	.	.	.	.	.	.	.	.
!	!	!	!LO:MO:mod=16aLL)	!	!	!	!	!	!	!	!	!	!	!
8G\	x x	.	16a\LL	.	16ff#\LL)	.	.	.	.	.	.	.	.	.
.	.	.	16b\JJ	.	16gg\JJ	.	.	.	.	.	.	.	.	.
8G\	6_ 4_	.	8cc\L	.	(16aa\LL	.	.	.	.	.	.	.	.	.
.	.	.	.	.	16gg\)	.	.	.	.	.	.	.	.	.
!	!	!	!LO:MO:mod=(16ddL	!	!	!	!	!	!	!	!	!	!	!
8G\J	x x	.	16dd\L	.	(16ff#\	.	.	.	.	.	.	.	.	.
!	!	!	!LO:MO:mod=16ccJJ)	!	!	!	!	!	!	!	!	!	!	!
.	.	.	16cc\JJ	.	16ee\JJ)	.	.	.	.	.	.	.	.	.
=4	=4	=4	=4	=4	=4	=4	=4	=4	=4	=4	=4	=4	=4	=4
4G\	x x	.	(8.cc\L	.	(8.ee\L	.	2.ryy	2.ryy	2.r	.	2.r	.	2.ryy	2.ryy
.	.	.	32b\LL	.	32dd\LL	.	.	.	.	.	.	.	.	.
.	.	.	32cc\JJJ)	.	32ee\JJJ)	.	.	.	.	.	.	.	.	.
!	!	!	!LO:MO:mod=8bL	!	!LO:MO:mod=8ddL	!	!	!	!	!	!	!	!	!
4GG|/	3	.	8b|\L	.	8dd|\L	.	.	.	.	.	.	.	.	.
.	.	.	(16gg\L	.	16bb\L	.	.	.	.	.	.	.	.	.
.	.	.	16ff#\JJ)	.	16aa\JJ	.	.	.	.	.	.	.	.	.
8r	.	.	16ee\LL	.	16gg\LL	.	.	.	.	.	.	.	.	.
.	.	.	16dd\	.	16ff#\	.	.	.	.	.	.	.	.	.
8G\	.	.	16cc\	.	16ee\	.	.	.	.	.	.	.	.	.
.	.	.	16b\JJ	.	16dd\JJ	.	.	.	.	.	.	.	.	.
=5	=5	=5	=5	=5	=5	=5	=5	=5	=5	=5	=5	=5	=5	=5
4D\	7_	.	16b/LL	.	16dd\LL	.	2.ryy	2.ryy	2.r	.	2.r	.	2.ryy	2.ryy
.	.	.	16a/	.	16cc\	.	.	.	.	.	.	.	.	.
.	.	.	16a/	.	16cc\	.	.	.	.	.	.	.	.	.
.	.	.	16g/JJ	.	16b\JJ	.	.	.	.	.	.	.	.	.
4D\	x	.	8a\L	.	8cc\L	.	.	.	.	.	.	.	.	.
.	.	.	16ff#\L	.	16aa\L	.	.	.	.	.	.	.	.	.
.	.	.	16ee\JJ	.	16gg\JJ	.	.	.	.	.	.	.	.	.
8r	.	.	16dd\LL	.	16ff#\LL	.	.	.	.	.	.	.	.	.
.	.	.	16cc\	.	16ee\	.	.	.	.	.	.	.	.	.
8F#\	.	.	16b\	.	16dd\	.	.	.	.	.	.	.	.	.
.	.	.	16a\JJ	.	16cc\JJ	.	.	.	.	.	.	.	.	.
=6	=6	=6	=6	=6	=6	=6	=6	=6	=6	=6	=6	=6	=6	=6
!	!	!	!	!	!LO:LB:g=original	!	!	!	!	!	!	!	!	!
!	!	!	!LO:LB:g=original	!	!	!	!	!	!	!	!	!	!	!
4G\	.	.	16a/LL	.	16cc\LL	.	2.ryy	2.ryy	2.r	.	2.r	.	2.ryy	2.ryy
.	.	.	16g/	.	16b\	.	.	.	.	.	.	.	.	.
.	.	.	16g/	.	16b\	.	.	.	.	.	.	.	.	.
.	.	.	16f#/JJ	.	16a\JJ	.	.	.	.	.	.	.	.	.
4GG|/	.	.	8g/L	.	8b\L	.	.	.	.	.	.	.	.	.
.	.	.	16g/L	.	16b\L	.	.	.	.	.	.	.	.	.
.	.	.	16a/JJ	.	16cc\JJ	.	.	.	.	.	.	.	.	.
8r	.	.	8b\L	.	16dd\LL	.	.	.	.	.	.	.	.	.
.	.	.	.	.	16ee\	.	.	.	.	.	.	.	.	.
8G\	.	.	8b\J	.	16ff#\	.	.	.	.	.	.	.	.	.
.	.	.	.	.	16gg\JJ	.	.	.	.	.	.	.	.	.
=7	=7	=7	=7	=7	=7	=7	=7	=7	=7	=7	=7	=7	=7	=7
!LO:TX:t=P:problem=mixed beam	!	!	!	!	!	!	!	!	!	!	!	!	!	!
8c\L	6	.	8cc\L	.	16ffn\LL	.	2.ryy	2.ryy	2.r	.	2.r	.	2.ryy	2.ryy
.	.	.	.	.	16ee\	.	.	.	.	.	.	.	.	.
8c\	.	.	16ee\L	.	16ccc\	.	.	.	.	.	.	.	.	.
.	.	.	16cc\JJ	.	16aa\JJ	.	.	.	.	.	.	.	.	.
8d\	4	.	4b/	.	4gg\	.	.	.	.	.	.	.	.	.
8d\	.	.	.	.	.	.	.	.	.	.	.	.	.	.
8D/	3	.	4a/	.	4ff#X\	.	.	.	.	.	.	.	.	.
8D/J	.	.	.	.	.	.	.	.	.	.	.	.	.	.
=8	=8	=8	=8	=8	=8	=8	=8	=8	=8	=8	=8	=8	=8	=8
!LO:LB:g=original	!	!	!	!	!	!	!	!	!	!	!	!	!	!
8G\L	.	.	4.b\	.	4.gg\	.	2.ryy	2.ryy	2.r	.	2.r	.	2.ryy	2.ryy
8G\	.	.	.	.	.	.	.	.	.	.	.	.	.	.
8G\	.	.	.	.	.	.	.	.	.	.	.	.	.	.
!	!	!LO:MO:null:mod=!LO&colon;DY&colon;ed=brack	!	!	!	!LO:MO:null:mod=!LO&colon;DY&colon;ed=brack	!	!	!	!	!	!	!	!
!	!	!	!	!LO:DY:a:t=p.	!	!	!	!	!	!	!	!	!	!
8G\	.	p	16a\LL	p	16aa\LL	p	.	.	.	.	.	.	.	.
.	.	.	16b\JJ	.	16gg\JJ	.	.	.	.	.	.	.	.	.
.	.	.	16qqee/	.	16qqgg/	.	.	.	.	.	.	.	.	.
8G\	.	.	8dd\L	.	8ffn\L	.	.	.	.	.	.	.	.	.
!LO:TX:t=P:problem=niepewny odczyt cyfrowania	!	!	!	!	!	!	!	!	!	!	!	!	!	!
8G\J	7	.	16cc\L	.	16ee\L	.	.	.	.	.	.	.	.	.
.	.	.	16dd\JJ	.	16ff\JJ	.	.	.	.	.	.	.	.	.
=9	=9	=9	=9	=9	=9	=9	=9	=9	=9	=9	=9	=9	=9	=9
8G\L	6_ 5_	.	8cc\	.	8ee\	.	2.ryy	2.ryy	2.r	.	2.r	.	2.ryy	2.ryy
!	!	!	!	!	!	!LO:DY:b:t=for	!	!	!	!	!	!	!	!
!	!	!LO:MO:null:mod=!LO&colon;DY&colon;ed=brack	!	!LO:DY:b:t=rf.	!	!	!	!	!	!	!	!	!	!
!	!	!	!	!LO:MO:mod=f	!	!	!	!	!	!	!	!	!	!
8G\	x x	f	4ee\	rf	4ccc\	f	.	.	.	.	.	.	.	.
8G\	x x	.	.	.	.	.	.	.	.	.	.	.	.	.
8G\	x x	.	8cc\	.	8aa\	.	.	.	.	.	.	.	.	.
.	.	.	16qqb/	.	16qqgg/	.	.	.	.	.	.	.	.	.
8G\	r4#_ 2_	.	8a/L	.	8ff#X\L	.	.	.	.	.	.	.	.	.
8G\J	x x	.	16g/L	.	16ee\L	.	.	.	.	.	.	.	.	.
.	.	.	16a/JJ	.	16ff#\JJ	.	.	.	.	.	.	.	.	.
=10	=10	=10	=10	=10	=10	=10	=10	=10	=10	=10	=10	=10	=10	=10
!	!	!LO:MO:null:mod=!LO&colon;DY&colon;ed=brack	!	!	!	!LO:DY:b:t=p.	!	!	!	!	!	!	!	!
!	!	!	!	!LO:DY:b:t=p.	!	!	!	!	!	!	!	!	!	!
8G\L	5_ 3_	p	4.b\	p	4.gg\	p	2.ryy	2.ryy	2.r	.	2.r	.	2.ryy	2.ryy
8G\	x x	.	.	.	.	.	.	.	.	.	.	.	.	.
8G\	x x	.	.	.	.	.	.	.	.	.	.	.	.	.
8G\	x x	.	16a\LL	.	16aa\LL	.	.	.	.	.	.	.	.	.
.	.	.	16b\JJ	.	16gg\JJ	.	.	.	.	.	.	.	.	.
.	.	.	16qqee/	.	16qqgg/	.	.	.	.	.	.	.	.	.
8G\	r7n 5	.	8dd\L	.	8ffn\L	.	.	.	.	.	.	.	.	.
8G\J	.	.	16cc\L	.	16ee\L	.	.	.	.	.	.	.	.	.
.	.	.	16dd\JJ	.	16ff\JJ	.	.	.	.	.	.	.	.	.
=11	=11	=11	=11	=11	=11	=11	=11	=11	=11	=11	=11	=11	=11	=11
!	!	!	!	!	!LO:LB:g=original	!	!	!	!	!	!	!	!	!
8G\L	6_ 4_	.	8cc\	.	8ee\	.	2.ryy	2.ryy	2.r	.	2.r	.	2.ryy	2.ryy
!	!	!LO:MO:null:mod=!LO&colon;DY&colon;ed=brack	!	!	!	!LO:DY:b:t=for	!	!	!	!	!	!	!	!
!	!	!	!	!LO:DY:b:t=f.	!	!	!	!	!	!	!	!	!	!
8G\	x x	f	4ee\	f	4ccc\	f	.	.	.	.	.	.	.	.
8G\	x x	.	.	.	.	.	.	.	.	.	.	.	.	.
8G\	x x	.	8cc\	.	8aa\	.	.	.	.	.	.	.	.	.
!	!	!	!LO:LB:g=original	!	!	!	!	!	!	!	!	!	!	!
.	.	.	16qqb/	.	.	.	.	.	.	.	.	.	.	.
8G\	r4#_ 2_	.	8a/L	.	8ff#X\L	.	.	.	.	.	.	.	.	.
8G\J	.	.	16g/L	.	16ee\L	.	.	.	.	.	.	.	.	.
.	.	.	16a/JJ	.	16ff#\JJ	.	.	.	.	.	.	.	.	.
=12	=12	=12	=12	=12	=12	=12	=12	=12	=12	=12	=12	=12	=12	=12
4G\	x x	.	4a/	.	(4ff#\	.	2.ryy	2.ryy	2.r	.	2.r	.	2.ryy	2.ryy
4GG/	3	.	4b/	.	4gg\)	.	.	.	.	.	.	.	.	.
4r	.	.	4r	.	4r	.	.	.	.	.	.	.	.	.
=13	=13	=13	=13	=13	=13	=13	=13	=13	=13	=13	=13	=13	=13	=13
!	!	!	!	!LO:DY:a:t=p.	!	!LO:DY:a:t=p.	!	!	!	!	!	!	!	!
!	!	!	!	!	!	!	!	!	!LO:TX:i:t=ſolo	!	!LO:TX:i:t=ſolo	!	!	!
!	!	!LO:DY:a:t=p.	!	!	!	!	!	!	!LO:MO:mod=(2b	!	!	!	!	!
8G\L	.	p	2b/	p	2dd\	p	2.ryy	2.ryy	2b\	Et	(2dd\	Et	2.ryy	2.ryy
8G\	.	.	.	.	.	.	.	.	.	.	.	.	.	.
8G\	.	.	.	.	.	.	.	.	.	.	.	.	.	.
8G\	.	.	.	.	.	.	.	.	.	.	.	.	.	.
!	!	!	!	!	!	!	!	!	!LO:MO:mod=(16gLL)	!	!LO:MO:mod=(16bLL)	!	!	!
8G\	.	.	16g/LL	.	16b\LL	.	.	.	(16g\LL	.	16b\LL)	.	.	.
!	!	!	!	!	!	!	!	!	!	!	!LO:MO:mod=16aJJ)	!	!	!
.	.	.	16f#/	.	16a\	.	.	.	16f#\JJ)	.	16a\JJ	.	.	.
8G\J	.	.	16g/	.	16b\	.	.	.	16g\LL	mi-	16b\LL	mi-	.	.
.	.	.	16a/JJ	.	16cc\JJ	.	.	.	16a\JJ	.	16cc\JJ	.	.	.
=14	=14	=14	=14	=14	=14	=14	=14	=14	=14	=14	=14	=14	=14	=14
8G\L	.	.	2b\	.	2dd\	.	2.ryy	2.ryy	2b\	-ſe-	2dd\	-ſe-	2.ryy	2.ryy
8G\	.	.	.	.	.	.	.	.	.	.	.	.	.	.
8G\	.	.	.	.	.	.	.	.	.	.	.	.	.	.
8G\	.	.	.	.	.	.	.	.	.	.	.	.	.	.
8G\	6 4	.	8cc\L	.	8ee\L	.	.	.	8cc\L	-ri-	8ee\L	-ri-	.	.
8G\J	7 2	.	8a\J	.	8ff#\J	.	.	.	8a\J	.	8ff#\J	.	.	.
=15	=15	=15	=15	=15	=15	=15	=15	=15	=15	=15	=15	=15	=15	=15
!	!	!	!LO:MO:mod=(4.b	!	!	!	!	!	!	!	!	!	!	!
8G\L	8_ 3_	.	4.b\	.	(4.gg\	.	2.ryy	2.ryy	2b\	-cor-	4.gg\	-cor-	2.ryy	2.ryy
8G\	x x	.	.	.	.	.	.	.	.	.	.	.	.	.
8G\	x x	.	.	.	.	.	.	.	.	.	.	.	.	.
!	!	!	!LO:MO:mod=16a)	!	!	!	!	!	!	!	!	!	!	!
8G\	x x	.	16a\LL	.	16ff#\LL	.	.	.	.	.	16ff#\LL	.	.	.
.	.	.	16b\JJ	.	16gg\JJ)	.	.	.	.	.	16gg\JJ	.	.	.
8G\	6_ 4_	.	8cc\L	.	(16aa\LL	.	.	.	8cc\	-di-	16aa\LL	-di-	.	.
.	.	.	.	.	16gg\)	.	.	.	.	.	16gg\JJ	.	.	.
!	!	!	!LO:MO:mod=(16ddL	!	!	!	!	!	!	!	!	!	!	!
8G\J	x x	.	16dd\L	.	(16ff#\	.	.	.	16dd\LL	-a	16ff#\LL	-a	.	.
!	!	!	!LO:MO:mod=16ccJJ)	!	!	!	!	!	!	!	!	!	!	!
.	.	.	16cc\JJ	.	16ee\JJ)	.	.	.	16cc\JJ	.	16ee\JJ	.	.	.
=16	=16	=16	=16	=16	=16	=16	=16	=16	=16	=16	=16	=16	=16	=16
!LO:PB:g=original	!	!	!	!	!	!	!	!	!	!	!	!	!	!
!LO:TX:t=P:F#C#:problem=po przewrocie strony błędnie zapisane znaki	!	!	!	!	!	!	!	!	!	!	!	!	!	!
!	!	!	!LO:MO:mod=8.ccL	!	!	!	!	!	!	!	!	!	!	!
4G\	.	.	(8.cc\L	.	8.eeT\L	.	2.ryy	2.ryy	8.cc\L	e-	8.ee\L	e-	2.ryy	2.ryy
!	!	!	!LO:MO:mod=(32bLL	!	!	!	!	!	!	!	!	!	!	!
.	.	.	32b\LL	.	(32dd\LL	.	.	.	32b\LL	.	32dd\LL	.	.	.
.	.	.	32cc\JJJ)	.	32ee\JJJ)	.	.	.	32cc\JJJ	.	32ee\JJJ	.	.	.
4GG/	3	.	8b\L	.	8dd\L	.	.	.	4b\	-ius	4dd\	-ius	.	.
.	.	.	16gg\L	.	16bb\L	.	.	.	.	.	.	.	.	.
.	.	.	16ff#\JJ	.	16aa\JJ	.	.	.	.	.	.	.	.	.
8r	.	.	16ee\LL	.	16gg\LL	.	.	.	8b\	a	16gg\LL	a	.	.
.	.	.	16dd\	.	16ff#\	.	.	.	.	.	16ff#\JJ	.	.	.
8G\	.	.	16cc\	.	16ee\	.	.	.	8b\	pro-	16ee\LL	pro-	.	.
.	.	.	16b\JJ	.	16dd\JJ	.	.	.	.	.	16dd\JJ	.	.	.
=17	=17	=17	=17	=17	=17	=17	=17	=17	=17	=17	=17	=17	=17	=17
4D\	7_	.	16b/LL	.	16dd\LL	.	2.ryy	2.ryy	16b\LL	-ge-	16dd\LL	-ge-	2.ryy	2.ryy
.	.	.	16a/	.	16cc\	.	.	.	16a\JJ	.	16cc\JJ	.	.	.
.	.	.	16a/	.	16cc\	.	.	.	16a\LL	-ni-	16cc\LL	-ni-	.	.
.	.	.	16g/JJ	.	16b\JJ	.	.	.	16g\JJ	.	16b\JJ	.	.	.
!	!	!	!	!	!	!	!	!	!	!	!LO:LB:g=original	!	!	!
!	!	!	!	!	!LO:LB:g=original	!	!	!	!	!	!	!	!	!
4D\	x	.	8a\L	.	8cc\L	.	.	.	4a\	-e	4cc\	-e	.	.
.	.	.	16ff#\L	.	16aa\L	.	.	.	.	.	.	.	.	.
.	.	.	16ee\JJ	.	16gg\JJ	.	.	.	.	.	.	.	.	.
!	!	!	!	!	!	!	!	!	!LO:LB:g=original	!	!	!	!	!
8r	.	.	16dd\LL	.	16ff#\LL	.	.	.	8a\	in	16ff#\LL	in	.	.
.	.	.	16cc\	.	16ee\	.	.	.	.	.	16ee\JJ	.	.	.
!LO:TX:t=P:problem=niezidentyfikowany znak	!	!	!	!	!	!	!	!	!	!	!	!	!	!
8F#\	.	.	16b\	.	16dd\	.	.	.	8a\	pro-	16dd\LL	pro-	.	.
!	!	!	!	!	!	!	!	!	!LO:TX:t=y:mod=	!	!LO:TX:t=	!	!	!
.	.	.	16a\JJ	.	16cc\JJ	.	.	.	.	.	16cc\JJ	.	.	.
=18	=18	=18	=18	=18	=18	=18	=18	=18	=18	=18	=18	=18	=18	=18
!	!	!	!LO:LB:g=original	!	!	!	!	!	!	!	!	!	!	!
4G\	.	.	16a/LL	.	16cc\LL	.	2.ryy	2.ryy	16a\LL	-ge-	16cc\LL	-ge-	2.ryy	2.ryy
.	.	.	16g/	.	16b\	.	.	.	16g\JJ	.	16b\JJ	.	.	.
.	.	.	16g/	.	16b\	.	.	.	16g\LL	-ni-	16b\LL	-ni-	.	.
.	.	.	16f#/JJ	.	16a\JJ	.	.	.	16f#\JJ	.	16a\JJ	.	.	.
4GG/	.	.	8g/L	.	8b\L	.	.	.	4g\	-es	4b\	-es	.	.
.	.	.	16b/L	.	16gg\L	.	.	.	.	.	.	.	.	.
.	.	.	16dd/JJ	.	16ff#\JJ	.	.	.	.	.	.	.	.	.
8r	.	.	16cc/LL	.	16ee\LL	.	.	.	8r	.	8r	.	.	.
.	.	.	16b/	.	16dd\	.	.	.	.	.	.	.	.	.
8G\	.	.	16a/	.	16cc\	.	.	.	8b\	ti-	8dd\	ti-	.	.
.	.	.	16g/JJ	.	16b\JJ	.	.	.	.	.	.	.	.	.
=19	=19	=19	=19	=19	=19	=19	=19	=19	=19	=19	=19	=19	=19	=19
!	!	!	!	!	!	!	!	!	!	!	!LO:MO:mod=(4.cc	!	!	!
8c\L	6_	.	4.a/	.	4.cc\	.	2.ryy	2.ryy	(4.a\	-men-	4.cc\	-men-	2.ryy	2.ryy
8c\	x	.	.	.	.	.	.	.	.	.	.	.	.	.
8c\	x	.	.	.	.	.	.	.	.	.	.	.	.	.
!	!	!	!	!	!	!	!	!	!	!	!LO:MO:mod=16ddLL)	!	!	!
8c\	x	.	16b/LL	.	16dd\LL	.	.	.	16b\LL)	.	16dd\LL	.	.	.
.	.	.	16a/JJ	.	16cc\JJ	.	.	.	16a\JJ	.	16cc\JJ	.	.	.
8c#X\	5_	.	16a/LL	.	16cc\LL	.	.	.	16a\LL	-ti-	16cc\LL	-ti-	.	.
.	.	.	16g/	.	16b\	.	.	.	16g\JJ	.	16b\JJ	.	.	.
8c#\J	x	.	16f#/	.	16a\	.	.	.	16f#\LL	-bus	16a\LL	-bus	.	.
.	.	.	16g/JJ	.	16b\JJ	.	.	.	16g\JJ	.	16b\JJ	.	.	.
=20	=20	=20	=20	=20	=20	=20	=20	=20	=20	=20	=20	=20	=20	=20
8d\L	4_	.	8.g/L	.	8.b/L	.	2.ryy	2.ryy	8.g\L	e-	8.b\L	e-	2.ryy	2.ryy
16d\L	x	.	.	.	.	.	.	.	.	.	.	.	.	.
16c#X\JJ	x	.	32f#/LL	.	32a/LL	.	.	.	32f#\LL	.	32a\LL	.	.	.
.	.	.	32g/JJJ	.	32b/JJJ	.	.	.	32g\JJJ	.	32b\JJJ	.	.	.
8d\L	3_	.	4f#/	.	4a/	.	.	.	4f#\	-um	4a\	-um	.	.
8d\	x	.	.	.	.	.	.	.	.	.	.	.	.	.
8A\	x	.	4r	.	4r	.	.	.	4r	.	4r	.	.	.
8F#\J	x	.	.	.	.	.	.	.	.	.	.	.	.	.
=21	=21	=21	=21	=21	=21	=21	=21	=21	=21	=21	=21	=21	=21	=21
!	!	!	!	!	!LO:MO:mod=(4.a	!	!	!	!	!	!LO:MO:mod=(4.a	!	!	!
8D\L	.	.	(4.f#/	.	4.a/	.	2.ryy	2.ryy	(4.f#\	Fe-	4.a\	Fe-	2.ryy	2.ryy
8D\	.	.	.	.	.	.	.	.	.	.	.	.	.	.
8D\	.	.	.	.	.	.	.	.	.	.	.	.	.	.
!	!	!	!	!	!LO:MO:mod=8f#)	!	!	!	!	!	!LO:MO:mod=8f#)	!	!	!
8D\	.	.	8d/)	.	8f#/	.	.	.	8d\)	.	8f#/	.	.	.
.	.	.	16qqf#/	.	16qqa/	.	.	.	.	.	.	.	.	.
8D\	4_ 2_	.	8e/L	.	8g/L	.	.	.	8e\	-cit	8g\	-cit	.	.
8D\J	x x	.	16d/L	.	16f#/L	.	.	.	16d\LL	po-	16f#\LL	po-	.	.
.	.	.	16e/JJ	.	16g/JJ	.	.	.	16e\JJ	.	16g\JJ	.	.	.
=22	=22	=22	=22	=22	=22	=22	=22	=22	=22	=22	=22	=22	=22	=22
*tremolo	*	*	*	*	*	*	*	*	*	*	*	*	*	*
8D\L	5_ 3_	.	16f#/LL	.	16a/LL	.	2.ryy	2.ryy	16f#\LL	-ten-	16a\LL	-ten-	2.ryy	2.ryy
.	.	.	16g/	.	16b/	.	.	.	16g\JJ	.	16b\JJ	.	.	.
8D\	x x	.	16f#/	.	16a/	.	.	.	16f#\LL	-ti-	16a\LL	-ti-	.	.
.	.	.	16e/JJ	.	16g/JJ	.	.	.	16e\JJ	.	16g\JJ	.	.	.
!	!	!	!	!	!	!	!	!	!	!	!LO:LB:g=original	!	!	!
8D\	x x	.	8d/L	.	8f#/L	.	.	.	4d\	-am	4f#/	-am	.	.
8D\	x x	.	8d/J	.	8f#/J	.	.	.	.	.	.	.	.	.
8D\	x x	.	16d/LL	.	16f#/LL	.	.	.	4r	.	4r	.	.	.
.	.	.	16c#X/	.	16e/	.	.	.	.	.	.	.	.	.
8D\J	x x	.	16d/	.	16f#/	.	.	.	.	.	.	.	.	.
.	.	.	16e/JJ	.	16g/JJ	.	.	.	.	.	.	.	.	.
*Xtremolo	*	*	*	*	*	*	*	*	*	*	*	*	*	*
=23	=23	=23	=23	=23	=23	=23	=23	=23	=23	=23	=23	=23	=23	=23
!	!	!	!	!	!	!	!	!	!LO:LB:g=original	!	!	!	!	!
!	!	!	!	!	!LO:LB:g=original	!	!	!	!	!	!	!	!	!
8D\L	x x	.	4.f#/	.	4.a/	.	2.ryy	2.ryy	4.f#\	in	4.a\	in	2.ryy	2.ryy
8D\	x x	.	.	.	.	.	.	.	.	.	.	.	.	.
8D\	x x	.	.	.	.	.	.	.	.	.	.	.	.	.
8D\	x x	.	8d/	.	8f#/	.	.	.	8d\	bra-	8f#/	bra-	.	.
!	!	!	!LO:LB:g=original	!	!	!	!	!	!	!	!	!	!	!
.	.	.	16qqf#/	.	.	.	.	.	.	.	.	.	.	.
!LO:TX:t=P:problem=niejasny zapis cyfrowania	!	!	!	!	!	!	!	!	!	!	!	!	!	!
8D\	r3#_ 4_ 2_	.	8e/L	.	8g/L	.	.	.	8e\	-chi-	8g\	-chi-	.	.
8D\J	x x x	.	16d/L	.	16f#/L	.	.	.	16d\LL	-o	16f#\LL	-o	.	.
.	.	.	16e/JJ	.	16g/JJ	.	.	.	16e\JJ	.	16g\JJ	.	.	.
=24	=24	=24	=24	=24	=24	=24	=24	=24	=24	=24	=24	=24	=24	=24
*tremolo	*	*	*	*	*	*	*	*	*	*	*	*	*	*
8D\L	5 3	.	16f#/LL	.	16a/LL	.	2.ryy	2.ryy	16f#\LL	ſu-	16a\LL	su-	2.ryy	2.ryy
.	.	.	16g/	.	16b/	.	.	.	16g\	.	16b\	.	.	.
8D\	.	.	16f#/	.	16a/	.	.	.	16f#\	.	16a\	.	.	.
.	.	.	16e/JJ	.	16g/JJ	.	.	.	16e\JJ	.	16g\JJ	.	.	.
8D\	.	.	8d/L	.	8f#/L	.	.	.	4d\	-o	4f#/	-o	.	.
8D\	.	.	16d/L	.	16f#/L	.	.	.	.	.	.	.	.	.
.	.	.	16e/JJ	.	16g/JJ	.	.	.	.	.	.	.	.	.
8D\	.	.	8f#/L	.	16a\LL	.	.	.	8r	.	8r	.	.	.
.	.	.	.	.	16b\	.	.	.	.	.	.	.	.	.
8D\J	.	.	8f#/J	.	16cc#X\	.	.	.	8f#\	dis-	8dd\	diſ-	.	.
.	.	.	.	.	16dd\JJ	.	.	.	.	.	.	.	.	.
*Xtremolo	*	*	*	*	*	*	*	*	*	*	*	*	*	*
=25	=25	=25	=25	=25	=25	=25	=25	=25	=25	=25	=25	=25	=25	=25
!LO:LB:g=original	!	!	!	!	!	!	!	!	!	!	!	!	!	!
8D\L	.	.	8f#/L	.	8dd\L	.	2.ryy	2.ryy	8f#\L	-per-	8dd\L	-per-	2.ryy	2.ryy
8D\	.	.	16e/L	.	16cc#X\L	.	.	.	16e\L	.	16cc#X\L	.	.	.
.	.	.	16f#/JJ	.	16dd\JJ	.	.	.	16f#\JJ	.	16dd\JJ	.	.	.
8G\	6	.	4g/	.	4ee\	.	.	.	4g\	-sit	4ee\	-sit	.	.
8G\	.	.	.	.	.	.	.	.	.	.	.	.	.	.
8A\	#	.	4e/	.	4cc#\	.	.	.	4e\	ſu-	4cc#\	ſu-	.	.
8A\J	.	.	.	.	.	.	.	.	.	.	.	.	.	.
=26	=26	=26	=26	=26	=26	=26	=26	=26	=26	=26	=26	=26	=26	=26
*tremolo	*	*	*	*	*	*	*	*	*	*	*	*	*	*
8D\L	.	.	16f#/LL	.	16dd\LL	.	2.ryy	2.ryy	16f#\LL	-per-	16dd\LL	-per-	2.ryy	2.ryy
!	!	!	!	!	!LO:SIC:v:s=16cc#\	!	!	!	!	!	!	!	!	!
.	.	.	16e/	.	16cc\	.	.	.	16e\	.	16cc#X\	.	.	.
8D\	.	.	16f#/	.	16dd\	.	.	.	16f#\	.	16dd\	.	.	.
.	.	.	16g/JJ	.	16ee\JJ	.	.	.	16g\JJ	.	16ee\JJ	.	.	.
!	!	!	!	!	!	!	!	!	!	!	!	!LO:MO:mod=-bos	!	!
8D\	.	.	8a/L	.	8ff#\L	.	.	.	4a\	-bos	4ff#\	-bus	.	.
8D\	.	.	8a/J	.	8ff#\J	.	.	.	.	.	.	.	.	.
8D\	.	.	16b/LL	.	16gg\LL	.	.	.	8r	.	8r	.	.	.
.	.	.	16a/	.	16ff#\	.	.	.	.	.	.	.	.	.
8D\J	.	.	16g/	.	16ee\	.	.	.	[<8f#\	men-	[<8dd\	men-	.	.
.	.	.	16f#/JJ	.	16dd\JJ	.	.	.	.	.	.	.	.	.
*Xtremolo	*	*	*	*	*	*	*	*	*	*	*	*	*	*
=27	=27	=27	=27	=27	=27	=27	=27	=27	=27	=27	=27	=27	=27	=27
8D\L	.	.	8f#/L	.	8dd\L	.	2.ryy	2.ryy	8f#\]	.	8dd\]	.	2.ryy	2.ryy
8D\	.	.	16e/L	.	16cc#X\L	.	.	.	16e\LL	-te	16cc#X\LL	-te	.	.
.	.	.	16f#/JJ	.	16dd\JJ	.	.	.	16g\JJ	.	16dd\JJ	.	.	.
8G\	6	.	4g/	.	4ee\	.	.	.	4a\	cor-	4ee\	cor-	.	.
8G\	.	.	.	.	.	.	.	.	.	.	.	.	.	.
8A\	#	.	4e/	.	4cc#\	.	.	.	4e\	-dis	4cc#\	-dis	.	.
8A\J	.	.	.	.	.	.	.	.	.	.	.	.	.	.
=28	=28	=28	=28	=28	=28	=28	=28	=28	=28	=28	=28	=28	=28	=28
!	!	!	!	!	!	!	!	!	!	!	!LO:LB:g=original	!	!	!
!LO:TX:t=P:problem=niezidentyfikowany znak	!	!	!	!	!	!	!	!	!LO:TX:t=y:mod=	!	!	!	!	!
4D\	.	.	8.f#/L	.	8.dd\L	.	2.ryy	2.ryy	8.f#\L	ſu-	8.dd\L	ſu-	2.ryy	2.ryy
.	.	.	16e/Jk	.	16cc#X\Jk	.	.	.	16e\Jk	.	16cc#X\Jk	.	.	.
!	!	!	!LO:TX:t=P:problem=mixed beam	!	!	!	!	!	!	!	!	!	!	!
!	!	!	!	!	!	!	!	!	!LO:LB:g=original	!	!	!	!	!
4D\	.	.	8f#/L	.	8dd\L	.	.	.	8f#\	-is	8dd\	-is	.	.
.	.	.	16dd\L	.	16ff#\L	.	.	.	16dd\LL	Cor-	16ff#\LL	Cor-	.	.
.	.	.	16cc#X\JJ	.	16ee\JJ	.	.	.	16cc#X\JJ	.	16ee\JJ	.	.	.
!	!	!	!	!	!LO:LB:g=original	!	!	!	!	!	!	!	!	!
8r	.	.	16b/LL	.	16dd\LL	.	.	.	16b\LL	.	16dd\LL	.	.	.
.	.	.	16a/	.	16cc#\	.	.	.	16a\	.	16cc#X\	.	.	.
8D#X\	6 5	.	16g/	.	16b\	.	.	.	16g\	.	16b\	.	.	.
.	.	.	16f#/JJ	.	16a\JJ	.	.	.	16f#\JJ	.	16a\JJ	.	.	.
=29	=29	=29	=29	=29	=29	=29	=29	=29	=29	=29	=29	=29	=29	=29
!	!	!	!LO:LB:g=original	!	!	!	!	!	!	!	!	!	!	!
4E\	9 4	.	8.f#/L	.	8.a/L	.	2.ryy	2.ryy	8.f#\L	.	8.a\L	.	2.ryy	2.ryy
.	.	.	32e/LL	.	32g/LL	.	.	.	32e\LL	.	32g\LL	.	.	.
.	.	.	32f#/JJJ	.	32a/JJJ	.	.	.	32f#\JJJ	.	32a\JJJ	.	.	.
!	!	!	!	!	!LO:TX:t=P:problem=mixed beam	!	!	!	!	!	!	!	!	!
4EE/	8 3	.	8e/L	.	8g/L	.	.	.	8e\	-dis	8g\	-dis	.	.
.	.	.	16cc#X/L	.	16ee\L	.	.	.	16cc#X\LL	Cor-	16ee\LL	Cor-	.	.
.	.	.	16b/JJ	.	16dd\JJ	.	.	.	16b\JJ	.	16dd\JJ	.	.	.
8r	.	.	16a/LL	.	16cc#X/LL	.	.	.	16a\LL	.	16cc#X\LL	.	.	.
.	.	.	16g/	.	16b/	.	.	.	16g\	.	16b\	.	.	.
8C#X/	6 5	.	16f#/	.	16a/	.	.	.	16f#\	.	16a\	.	.	.
.	.	.	16e/JJ	.	16g/JJ	.	.	.	16e\JJ	.	16g\JJ	.	.	.
=30	=30	=30	=30	=30	=30	=30	=30	=30	=30	=30	=30	=30	=30	=30
4Dn\	9 4	.	8.e/L	.	8.g/L	.	2.ryy	2.ryy	8.e\L	.	8.g/L	.	2.ryy	2.ryy
.	.	.	32d/LL	.	32f#/LL	.	.	.	32d\LL	.	32f#/LL	.	.	.
.	.	.	32e/JJJ	.	32g/JJJ	.	.	.	32e\JJJ	.	32g/JJJ	.	.	.
4DD/	7 3	.	8d/L	.	8f#/L	.	.	.	8d\	-dis	8f#/	-dis	.	.
.	.	.	16d/L	.	16f#/L	.	.	.	16d\LL	men-	16f#/LL	men-	.	.
.	.	.	16e/JJ	.	16g/JJ	.	.	.	(16e\JJ	.	16g/JJ	.	.	.
8r	.	.	16f#/LL	.	16a\LL	.	.	.	16f#\LL	.	16a\LL	.	.	.
.	.	.	16g/	.	16b\	.	.	.	16g\JJ)	.	16b\JJ	.	.	.
8F#\	6	.	16a/	.	16cc#X\	.	.	.	16a\LL	-te	16cc#X\LL	-te	.	.
.	.	.	16f#/JJ	.	16dd\JJ	.	.	.	16f#\JJ	.	16dd\JJ	.	.	.
=31	=31	=31	=31	=31	=31	=31	=31	=31	=31	=31	=31	=31	=31	=31
!LO:TX:t=P:problem=mixed beam	!	!	!	!	!	!	!	!	!	!	!	!	!	!
!	!	!	!	!	!	!	!	!	!	!LO:MO:mod=Cor-	!	!	!	!
8G\L	6	.	8g/L	.	16ee\LL	.	2.ryy	2.ryy	16g\LL	cor-	16ee\LL	Cor-	2.ryy	2.ryy
.	.	.	.	.	16ff#\	.	.	.	16a\JJ	.	16ff#\JJ	.	.	.
8G\	.	.	16b/L	.	16gg\	.	.	.	16b\LL	-di	16gg\LL	-dis	.	.
.	.	.	16g/JJ	.	16ee\JJ	.	.	.	16a\JJ	.	16ee\JJ	.	.	.
8A\	4	.	4f#/	.	4dd\	.	.	.	4f#\	su-	4dd\	ſu-	.	.
8A\	.	.	.	.	.	.	.	.	.	.	.	.	.	.
8AA/	#	.	4e/	.	4cc#X\	.	.	.	4e\	.	4cc#X\	.	.	.
8AA/J	.	.	.	.	.	.	.	.	.	.	.	.	.	.
=32	=32	=32	=32	=32	=32	=32	=32	=32	=32	=32	=32	=32	=32	=32
!	!	!	!	!	!	!	!	!	!	!	!LO:LB:g=original	!	!	!
8D\L	.	.	4.f#/	.	4.dd\	.	2.ryy	2.ryy	4.f#\	-is	4.dd\	-is	2.ryy	2.ryy
8D\	.	.	.	.	.	.	.	.	.	.	.	.	.	.
8D\	.	.	.	.	.	.	.	.	.	.	.	.	.	.
8D\	.	.	16e/LL	.	16cc#X\LL	.	.	.	16e\LL	ſu-	16cc#X\LL	ſu-	.	.
.	.	.	16f#/JJ	.	16dd\JJ	.	.	.	16f#\JJ	.	16dd\JJ	.	.	.
.	.	.	.	.	16qqff#/	.	.	.	.	.	.	.	.	.
!	!	!	!	!	!	!	!	!	!LO:LB:g=original	!	!	!	!	!
8D\	4 2	.	8g/L	.	8ee\L	.	.	.	8g\	-per-	8ee\	-per-	.	.
8D\J	.	.	16f#/L	.	16dd\L	.	.	.	16f#\LL	-bos	16dd\LL	-bos	.	.
.	.	.	16g/JJ	.	16ee\JJ	.	.	.	16g\JJ	.	16ee\JJ	.	.	.
=33	=33	=33	=33	=33	=33	=33	=33	=33	=33	=33	=33	=33	=33	=33
8D\L	5 3	.	4.a/	.	4.ff#\	.	2.ryy	2.ryy	4.a\	men-	4.ff#\	men-	2.ryy	2.ryy
8D\	.	.	.	.	.	.	.	.	.	.	.	.	.	.
8F#\	.	.	.	.	.	.	.	.	.	.	.	.	.	.
8F#\	.	.	8f#/	.	8dd\	.	.	.	8f#\	-te	8dd\	-te	.	.
.	.	.	16qqa/	.	16qqff#/	.	.	.	8qqa/	.	.	.	.	.
8A\	#	.	8g/L	.	8ee\L	.	.	.	8g\L	Cor-	8ee\L	Cor-	.	.
8A\J	.	.	16f#/L	.	16dd\L	.	.	.	16f#\L	.	16dd\L	.	.	.
.	.	.	16e/JJ	.	16cc#X\JJ	.	.	.	16e\JJ	.	16cc#X\JJ	.	.	.
=34	=34	=34	=34	=34	=34	=34	=34	=34	=34	=34	=34	=34	=34	=34
!LO:LB:g=original	!	!	!	!	!LO:LB:g=original	!	!	!	!	!	!	!	!	!
8D\L	3_	.	4.f#/	.	4.dd\	.	2.ryy	2.ryy	4.f#\	-dis	4.dd\	-dis	2.ryy	2.ryy
8D\	x	.	.	.	.	.	.	.	.	.	.	.	.	.
8D\	x	.	.	.	.	.	.	.	.	.	.	.	.	.
8D\	x	.	16e/LL	.	16cc#X\LL	.	.	.	16e\LL	Cor-	16cc#X\LL	Cor-	.	.
.	.	.	16f#/JJ	.	16dd\JJ	.	.	.	16f#\JJ	.	16dd\JJ	.	.	.
.	.	.	.	.	16qqff#/	.	.	.	.	.	.	.	.	.
!	!	!	!LO:LB:g=original	!	!	!	!	!	!	!	!	!	!	!
8D\	4_ 2_	.	8g/L	.	8ee\L	.	.	.	8g\L	.	8ee\L	.	.	.
8D\J	x x	.	16f#/L	.	16dd\L	.	.	.	16f#\L	.	16dd\L	.	.	.
.	.	.	16g/JJ	.	16ee\JJ	.	.	.	16g\JJ	.	16ee\JJ	.	.	.
=35	=35	=35	=35	=35	=35	=35	=35	=35	=35	=35	=35	=35	=35	=35
8D\L	5_ 3_	.	4.a/	.	4.ff#\	.	2.ryy	2.ryy	4.a\	.	4.ff#\	.	2.ryy	2.ryy
8D\	x x	.	.	.	.	.	.	.	.	.	.	.	.	.
8F#\	x x	.	.	.	.	.	.	.	.	.	.	.	.	.
8F#\	x x	.	8f#/	.	8dd\	.	.	.	8f#\	-dis	8dd\	-dis	.	.
.	.	.	16qqa/	.	16qqff#/	.	.	.	.	.	.	.	.	.
8A\	#	.	8g/L	.	8ee\L	.	.	.	8g\L	ſu-	8ee\L	su-	.	.
8A\J	.	.	16f#/L	.	16dd\L	.	.	.	16f#\L	.	16dd\L	.	.	.
.	.	.	16e/JJ	.	16cc#X\JJ	.	.	.	16e\JJ	.	16cc#X\JJ	.	.	.
=36	=36	=36	=36	=36	=36	=36	=36	=36	=36	=36	=36	=36	=36	=36
!	!	!	!	!LO:DY:a:t=for	!	!LO:DY:a:t=for.	!	!	!	!	!	!	!	!
!	!	!LO:DY:a:t=for	!	!	!	!	!	!	!	!	!	!LO:MO:mod=-is	!	!
8D\L	.	f	8f#/L	f	2dd\	f	2.ryy	2.ryy	4f#\	-is	4dd\	-i	2.ryy	2.ryy
8D\	.	.	8f#/	.	.	.	.	.	.	.	.	.	.	.
8D\	.	.	8f#/	.	.	.	.	.	4r	.	4r	.	.	.
8D\	.	.	8f#/	.	.	.	.	.	.	.	.	.	.	.
8D\	.	.	8f#/	.	16ee\LL	.	.	.	4r	.	4r	.	.	.
.	.	.	.	.	16dd\	.	.	.	.	.	.	.	.	.
!LO:TX:t=P:problem=niezidentyfikowany znak	!	!	!	!	!	!	!	!	!	!	!	!	!	!
8D\J	.	.	8f#/J	.	16cc#X\	.	.	.	.	.	.	.	.	.
.	.	.	.	.	16dd\JJ	.	.	.	.	.	.	.	.	.
=37	=37	=37	=37	=37	=37	=37	=37	=37	=37	=37	=37	=37	=37	=37
8D\L	6_ 4_	.	8g/L	.	4.b\	.	2.ryy	2.ryy	2.r	.	2.r	.	2.ryy	2.ryy
8D\	x x	.	8g/	.	.	.	.	.	.	.	.	.	.	.
8D\	x x	.	8g/	.	.	.	.	.	.	.	.	.	.	.
8D\	x x	.	8g/	.	16a\LL	.	.	.	.	.	.	.	.	.
.	.	.	.	.	16b\JJ	.	.	.	.	.	.	.	.	.
8D\	.	.	8f#/	.	16a\LL	.	.	.	.	.	.	.	.	.
.	.	.	.	.	16dd\	.	.	.	.	.	.	.	.	.
8D\J	.	.	8f#/J	.	16ff#\	.	.	.	.	.	.	.	.	.
.	.	.	.	.	16dd\JJ	.	.	.	.	.	.	.	.	.
=38	=38	=38	=38	=38	=38	=38	=38	=38	=38	=38	=38	=38	=38	=38
!LO:TX:t=P:problem=mixed beam	!	!	!	!	!	!	!	!	!	!	!	!	!	!
8A\L	4	.	8.f#/L	.	8.dd\L	.	2.ryy	2.ryy	2.r	.	2.r	.	2.ryy	2.ryy
8A\	.	.	.	.	.	.	.	.	.	.	.	.	.	.
.	.	.	32e/LL	.	32cc#X\LL	.	.	.	.	.	.	.	.	.
.	.	.	32f#/JJJ	.	32dd\JJJ	.	.	.	.	.	.	.	.	.
8AA/	#	.	8e/L	.	8cc#\L	.	.	.	.	.	.	.	.	.
8AA/	.	.	8e/	.	16ee\L	.	.	.	.	.	.	.	.	.
.	.	.	.	.	16cc#\JJ	.	.	.	.	.	.	.	.	.
8C#X/	6 5	.	8e/	.	16a/LL	.	.	.	.	.	.	.	.	.
.	.	.	.	.	16b/	.	.	.	.	.	.	.	.	.
8C#/J	.	.	8e/J	.	16a/	.	.	.	.	.	.	.	.	.
.	.	.	.	.	16g/JJ	.	.	.	.	.	.	.	.	.
=39	=39	=39	=39	=39	=39	=39	=39	=39	=39	=39	=39	=39	=39	=39
4D\	4	.	8.e/L	.	8.g/L	.	2.ryy	2.ryy	2.r	.	2.r	.	2.ryy	2.ryy
.	.	.	32d/LL	.	32f#/LL	.	.	.	.	.	.	.	.	.
.	.	.	32e/JJJ	.	32g/JJJ	.	.	.	.	.	.	.	.	.
4DD/	3	.	4d/	.	8f#/L	.	.	.	.	.	.	.	.	.
.	.	.	.	.	16f#/L	.	.	.	.	.	.	.	.	.
.	.	.	.	.	16g/JJ	.	.	.	.	.	.	.	.	.
!	!	!	!	!	!LO:LB:g=original	!	!	!	!	!	!	!	!	!
8r	.	.	8r	.	16a\LL	.	.	.	.	.	.	.	.	.
.	.	.	.	.	16b\	.	.	.	.	.	.	.	.	.
8F#\	.	.	8d/	.	16cc#X\	.	.	.	.	.	.	.	.	.
.	.	.	.	.	16dd\JJ	.	.	.	.	.	.	.	.	.
=40	=40	=40	=40	=40	=40	=40	=40	=40	=40	=40	=40	=40	=40	=40
8G\L	3_	.	4.B/	.	4.b\	.	2.ryy	2.ryy	2.r	.	2.r	.	2.ryy	2.ryy
16G\L	x	.	.	.	.	.	.	.	.	.	.	.	.	.
16F#\JJ	x	.	.	.	.	.	.	.	.	.	.	.	.	.
8G\L	.	.	.	.	.	.	.	.	.	.	.	.	.	.
8E\	.	.	16A/LL	.	16a\LL	.	.	.	.	.	.	.	.	.
.	.	.	16B/JJ	.	16b\JJ	.	.	.	.	.	.	.	.	.
!	!	!	!LO:LB:g=original	!	!	!	!	!	!	!	!	!	!	!
.	.	.	16qqd/	.	.	.	.	.	.	.	.	.	.	.
8A\	#	.	8c#X/L	.	8cc#X\L	.	.	.	.	.	.	.	.	.
8G\J	.	.	16B/L	.	16b\L	.	.	.	.	.	.	.	.	.
.	.	.	16c#/JJ	.	16cc#\JJ	.	.	.	.	.	.	.	.	.
=41	=41	=41	=41	=41	=41	=41	=41	=41	=41	=41	=41	=41	=41	=41
8F#\L	6_	.	8d/L	.	8.dd\L	.	2.ryy	2.ryy	2.r	.	2.r	.	2.ryy	2.ryy
8F#\	x	.	16e/L	.	.	.	.	.	.	.	.	.	.	.
.	.	.	16f#/JJ	.	32ee\LL	.	.	.	.	.	.	.	.	.
.	.	.	.	.	32ff#\JJJ	.	.	.	.	.	.	.	.	.
8E\	3_	.	8g/L	.	8gg\L	.	.	.	.	.	.	.	.	.
8E\	x	.	8g/J	.	8gg\J	.	.	.	.	.	.	.	.	.
8D\	3_	.	16g/LL	.	16gg\LL	.	.	.	.	.	.	.	.	.
.	.	.	16f#/	.	16ff#\	.	.	.	.	.	.	.	.	.
8D\J	x	.	16a/	.	16aa\	.	.	.	.	.	.	.	.	.
.	.	.	16f#/JJ	.	16ff#\JJ	.	.	.	.	.	.	.	.	.
=42	=42	=42	=42	=42	=42	=42	=42	=42	=42	=42	=42	=42	=42	=42
8G\L	6	.	8.e/L	.	16ee\LL	.	2.ryy	2.ryy	2.r	.	2.r	.	2.ryy	2.ryy
.	.	.	.	.	16ff#\	.	.	.	.	.	.	.	.	.
8G\J	.	.	.	.	16gg\	.	.	.	.	.	.	.	.	.
.	.	.	16g/Jk	.	16ee\JJ	.	.	.	.	.	.	.	.	.
!LO:TX:t=P:problem=mixed beam	!	!	!	!	!	!	!	!	!	!	!	!	!	!
!LO:LB:g=original	!	!	!	!	!	!	!	!	!	!	!	!	!	!
8A\L	4	.	4f#/	.	4dd\	.	.	.	.	.	.	.	.	.
8A\	.	.	.	.	.	.	.	.	.	.	.	.	.	.
8AA/	#	.	4e/	.	4cc#X\	.	.	.	.	.	.	.	.	.
8AA/J	.	.	.	.	.	.	.	.	.	.	.	.	.	.
=43	=43	=43	=43	=43	=43	=43	=43	=43	=43	=43	=43	=43	=43	=43
!	!	!LO:MO:null:mod=!LO&colon;DY&colon;ed=brack	!	!	!	!LO:MO:null:mod=!LO&colon;DY&colon;ed=brack	!	!	!	!	!	!	!	!
!	!	!	!	!	!	!	!	!	!	!	!	!	!	!
8D\L	.	p	4.f#/	p	4.dd\	p	2.ryy	2.ryy	2.r	.	2.r	.	2.ryy	2.ryy
8D\	.	.	.	.	.	.	.	.	.	.	.	.	.	.
8D\	.	.	.	.	.	.	.	.	.	.	.	.	.	.
8D\	.	.	16e/LL	.	16ee\LL	.	.	.	.	.	.	.	.	.
.	.	.	16f#/JJ	.	16dd\JJ	.	.	.	.	.	.	.	.	.
.	.	.	16qqb/	.	16qqdd/	.	.	.	.	.	.	.	.	.
!	!	!	!LO:MO:mod=(8aL	!	!	!	!	!	!	!	!	!	!	!
8D\	r7n_ 5_	.	8a|/L	.	(8ccn\L	.	.	.	.	.	.	.	.	.
8D\J	x x	.	16g/L	.	16b\L	.	.	.	.	.	.	.	.	.
!	!	!	!LO:MO:mod=16a)	!	!	!	!	!	!	!	!	!	!	!
.	.	.	16a/JJ	.	16cc\JJ)	.	.	.	.	.	.	.	.	.
=44	=44	=44	=44	=44	=44	=44	=44	=44	=44	=44	=44	=44	=44	=44
8D\L	6 4	.	8g/	.	8b\	.	2.ryy	2.ryy	2.r	.	2.r	.	2.ryy	2.ryy
!	!	!LO:MO:null:mod=!LO&colon;DY&colon;ed=brack	!	!	!	!	!	!	!	!	!	!	!	!
!	!	!	!	!LO:MO:mod=f	!	!LO:DY:b:t=for	!	!	!	!	!	!	!	!
8D\	.	f	4b/	rf	4gg\	f	.	.	.	.	.	.	.	.
8D\	.	.	.	.	.	.	.	.	.	.	.	.	.	.
8D\	.	.	8g/	.	8ee\	.	.	.	.	.	.	.	.	.
.	.	.	16qqf#/	.	16qqdd/	.	.	.	.	.	.	.	.	.
8D\	r7# 2	.	8e/L	.	8cc#X\L	.	.	.	.	.	.	.	.	.
8D\J	.	.	16d/L	.	16b\L	.	.	.	.	.	.	.	.	.
.	.	.	16e/JJ	.	16cc#\JJ	.	.	.	.	.	.	.	.	.
=45	=45	=45	=45	=45	=45	=45	=45	=45	=45	=45	=45	=45	=45	=45
!	!	!LO:MO:null:mod=!LO&colon;DY&colon;ed=brack	!	!	!	!LO:DY:b:t=p.	!	!	!	!	!	!	!	!
!	!	!	!	!LO:DY:b:t=p.	!	!	!	!	!	!	!	!	!	!
8D\L	8 3	p	4.f#/	p	4.dd\	p	2.ryy	2.ryy	2.r	.	2.r	.	2.ryy	2.ryy
8D\	.	.	.	.	.	.	.	.	.	.	.	.	.	.
8D\	.	.	.	.	.	.	.	.	.	.	.	.	.	.
8D\	.	.	16e/LL	.	16ee\LL	.	.	.	.	.	.	.	.	.
.	.	.	16f#/JJ	.	16dd\JJ	.	.	.	.	.	.	.	.	.
.	.	.	16qqb/	.	16qqdd/	.	.	.	.	.	.	.	.	.
8D\	r7n_ 2_	.	8a/L	.	8ccn\L	.	.	.	.	.	.	.	.	.
8D\J	x x	.	16g/L	.	16b\L	.	.	.	.	.	.	.	.	.
.	.	.	16a/JJ	.	16cc\JJ	.	.	.	.	.	.	.	.	.
=46	=46	=46	=46	=46	=46	=46	=46	=46	=46	=46	=46	=46	=46	=46
!	!	!	!LO:PB:g=original	!	!	!	!	!	!	!	!	!	!	!
8D\L	6_ 4_	.	8g/	.	8b\	.	2.ryy	2.ryy	2.r	.	2.r	.	2.ryy	2.ryy
!	!	!LO:MO:null:mod=!LO&colon;DY&colon;ed=brack	!	!	!	!LO:MO:null:mod=!LO&colon;DY&colon;ed=brack	!	!	!	!	!	!	!	!
!	!	!	!	!LO:DY:b:t=f.	!	!	!	!	!	!	!	!	!	!
8D\	x x	f	4b/	f	4gg\	f	.	.	.	.	.	.	.	.
8D\	x x	.	.	.	.	.	.	.	.	.	.	.	.	.
!	!	!	!	!	!	!LO:DY:b:t=rf.	!	!	!	!	!	!	!	!
!	!	!	!	!	!	!LO:MO:mod=!	!	!	!	!	!	!	!	!
8D\	x x	.	8g/	.	8ee\	rf	.	.	.	.	.	.	.	.
.	.	.	16qqf#/	.	16qqdd/	.	.	.	.	.	.	.	.	.
8D\	r7#_ 2_	.	8e/L	.	8cc#X\L	.	.	.	.	.	.	.	.	.
8D\J	x x	.	16d/L	.	16b\L	.	.	.	.	.	.	.	.	.
.	.	.	16e/JJ	.	16cc#\JJ	.	.	.	.	.	.	.	.	.
=47	=47	=47	=47	=47	=47	=47	=47	=47	=47	=47	=47	=47	=47	=47
!	!	!	!	!	!LO:SIC:v:s=4cc#\	!	!	!	!	!	!	!	!	!
!	!	!	!	!	!LO:MO:mod=(4cc#	!	!	!	!	!	!	!	!	!
4D\	x x	.	(4e/	.	4cc\	.	2.ryy	2.ryy	2.r	.	2.r	.	2.ryy	2.ryy
!	!	!	!	!	!LO:MO:mod=4dd)	!	!	!	!	!	!	!	!	!
4DD/	3	.	4f#/)	.	4dd\	.	.	.	.	.	.	.	.	.
4r	.	.	4r	.	4r	.	.	.	.	.	.	.	.	.
=48	=48	=48	=48	=48	=48	=48	=48	=48	=48	=48	=48	=48	=48	=48
!	!	!	!	!LO:DY:a:t=p.	!	!LO:DY:a:t=p.	!	!	!	!	!	!	!	!
!LO:TX:t=P:problem=niezidentyfikowany znak	!	!LO:DY:a:t=p.	!	!	!	!	!	!	!	!	!	!	!	!
8D\L	.	p	2f#/	p	2a/	p	2.ryy	2.ryy	2f#\	De-	2a\	De-	2.ryy	2.ryy
8D\	.	.	.	.	.	.	.	.	.	.	.	.	.	.
8D\	.	.	.	.	.	.	.	.	.	.	.	.	.	.
8D\	.	.	.	.	.	.	.	.	.	.	.	.	.	.
8D\	6_ 4_	.	8b/L	.	8dd\L	.	.	.	8b\L	-pos-	8dd\L	-poſ-	.	.
8D\J	x x	.	8g/J	.	8b\J	.	.	.	8g\J	.	8b\J	.	.	.
=49	=49	=49	=49	=49	=49	=49	=49	=49	=49	=49	=49	=49	=49	=49
*tremolo	*	*	*	*	*	*	*	*	*	*	*	*	*	*
!	!	!	!	!	!	!	!	!	!	!	!LO:LB:g=original	!	!	!
!	!	!	!	!	!	!	!	!	!LO:LB:g=original	!	!	!	!	!
8D\L	5_ 3_	.	2f#/	.	2a/	.	2.ryy	2.ryy	2f#\	.	2a\	.	2.ryy	2.ryy
8D\	x x	.	.	.	.	.	.	.	.	.	.	.	.	.
8D\	x x	.	.	.	.	.	.	.	.	.	.	.	.	.
8D\	x x	.	.	.	.	.	.	.	.	.	.	.	.	.
8D\	x x	.	16d/LL	.	16f#/LL	.	.	.	16d\LL	.	16f#/LL	.	.	.
.	.	.	(16c#X/	.	16e/	.	.	.	16c#X\	.	16e/JJ	.	.	.
8D\J	x x	.	16d/	.	16f#/	.	.	.	16d\	.	16f#/LL	.	.	.
.	.	.	16e/JJ)	.	16g/JJ	.	.	.	16e\JJ	.	16g/JJ	.	.	.
*Xtremolo	*	*	*	*	*	*	*	*	*	*	*	*	*	*
=50	=50	=50	=50	=50	=50	=50	=50	=50	=50	=50	=50	=50	=50	=50
!	!	!	!	!	!LO:MO:mod=(4.a	!	!	!	!	!	!	!	!	!
8D\L	.	.	(4.f#/	.	4.a/	.	2.ryy	2.ryy	4.f#\	.	4.a\	.	2.ryy	2.ryy
8D\	.	.	.	.	.	.	.	.	.	.	.	.	.	.
8D\	.	.	.	.	.	.	.	.	.	.	.	.	.	.
!	!	!	!	!	!LO:MO:mod=8f#)	!	!	!	!	!	!	!	!	!
8D\	.	.	8d/)	.	8f#/	.	.	.	8d\	-su-	8f#/	-su-	.	.
8D\	6_ 4_	.	8b/L	.	8dd\L	.	.	.	8b\	-it	8dd\	-it	.	.
8D\J	x x	.	16a/L	.	16cc\L	.	.	.	16a\LL	po-	16cc#X\LL	po-	.	.
.	.	.	16g/JJ	.	16b\JJ	.	.	.	16g\JJ	.	16b\JJ	.	.	.
=51	=51	=51	=51	=51	=51	=51	=51	=51	=51	=51	=51	=51	=51	=51
!LO:TX:t=P:problem=mixed beam	!	!	!	!	!	!	!	!	!	!	!	!	!	!
!	!	!	!	!	!LO:MO:mod=(8.bL	!	!	!	!	!	!	!	!	!
8D\L	x x	.	(8.g/L	.	8.b\L	.	2.ryy	2.ryy	8.g\L	-ten-	8.b\L	-ten-	2.ryy	2.ryy
8D\	x x	.	.	.	.	.	.	.	.	.	.	.	.	.
.	.	.	32f#/LL	.	32a\LL	.	.	.	32f#\LL	.	32a\LL	.	.	.
!	!	!	!	!	!LO:MO:mod=32bJJJ)	!	!	!	!	!	!	!	!	!
.	.	.	32g/JJJ)	.	32b\JJJ	.	.	.	32g\JJJ	.	32b\JJJ	.	.	.
8DD/	5 3	.	8f#|/L	.	8a\L	.	.	.	4f#\	-tes	4a\	-tes	.	.
!	!	!	!	!	!LO:MO:mod=(16ddL	!	!	!	!	!	!	!	!	!
8DD/	.	.	(16f#/L	.	16dd\L	.	.	.	.	.	.	.	.	.
!	!	!	!	!	!LO:MO:mod=16eeJJ)	!	!	!	!	!	!	!	!	!
.	.	.	16g/JJ)	.	16ee\JJ	.	.	.	.	.	.	.	.	.
!	!	!	!	!	!LO:LB:g=original	!	!	!	!	!	!	!	!	!
8D\	.	.	8a|/L	.	8ff#\L	.	.	.	8r	.	8r	.	.	.
8D\J	.	.	8a|/J	.	8ff#\J	.	.	.	8f#\	po-	8dd\	po-	.	.
=52	=52	=52	=52	=52	=52	=52	=52	=52	=52	=52	=52	=52	=52	=52
!LO:TX:t=P:problem=mixed beam	!	!	!	!	!	!	!	!	!	!	!	!	!	!
!LO:LB:g=original	!	!	!	!	!	!	!	!	!	!	!	!	!	!
8G\L	6_	.	8g/	.	8ee\	.	2.ryy	2.ryy	8g\	.	8ee\	.	2.ryy	2.ryy
8G\	x	.	4b/	.	4gg\	.	.	.	4b\	.	4gg\	.	.	.
8G\	x	.	.	.	.	.	.	.	.	.	.	.	.	.
8G\	x	.	8g/	.	8ee\	.	.	.	8g\	-ten-	8ee\	-ten-	.	.
8A\	4	.	16g/LL	.	16ee\LL	.	.	.	16g\LL	-tes	16ee\LL	-tes	.	.
.	.	.	16f#/	.	16dd\	.	.	.	16f#\JJ	.	16dd\JJ	.	.	.
8AA/J	#	.	16f#/	.	16dd\	.	.	.	16f#\LL	de	16dd\LL	de	.	.
.	.	.	16e/JJ	.	16cc#X\JJ	.	.	.	16e\JJ	.	16cc#X\JJ	.	.	.
=53	=53	=53	=53	=53	=53	=53	=53	=53	=53	=53	=53	=53	=53	=53
*tremolo	*	*	*	*	*	*	*	*	*	*	*	*	*	*
!	!	!	!LO:LB:g=original	!	!	!	!	!	!	!	!	!	!	!
8D\L	.	.	8.f#/L	.	8.dd\L	.	2.ryy	2.ryy	8.f#\L	-ſe-	8.dd\L	-ſe-	2.ryy	2.ryy
8D\	.	.	.	.	.	.	.	.	.	.	.	.	.	.
.	.	.	16g/Jk	.	16ee\Jk	.	.	.	16g\Jk	.	16ee\Jk	.	.	.
8D\	.	.	8a/L	.	8ff#\L	.	.	.	4a\	-de	4ff#\	-de	.	.
8D\	.	.	8a/J	.	8ff#\J	.	.	.	.	.	.	.	.	.
8D\	.	.	16a/LL	.	16ff#\LL	.	.	.	8r	.	8r	.	.	.
.	.	.	16f#/	.	16dd\	.	.	.	.	.	.	.	.	.
8D\J	.	.	16g/	.	16ee\	.	.	.	8a\	et	8ff#\	et	.	.
.	.	.	16a/JJ	.	16ff#\JJ	.	.	.	.	.	.	.	.	.
*Xtremolo	*	*	*	*	*	*	*	*	*	*	*	*	*	*
=54	=54	=54	=54	=54	=54	=54	=54	=54	=54	=54	=54	=54	=54	=54
!LO:TX:t=P:problem=mixed beam	!	!	!	!	!	!	!	!	!	!	!	!	!	!
!	!	!	!	!	!	!	!	!	!	!	!LO:PB:g=original	!	!	!
8G\L	6_	.	8g/	.	8ee\	.	2.ryy	2.ryy	8g\	ex-	8ee\	ex-	2.ryy	2.ryy
8G\	x	.	4b/	.	4gg\	.	.	.	4b\	.	4gg\	.	.	.
8G\	x	.	.	.	.	.	.	.	.	.	.	.	.	.
8G\	x	.	8g/	.	8ee\	.	.	.	8g\	-al-	8ee\	-al-	.	.
!	!	!	!	!	!	!	!	!	!LO:LB:g=original	!	!	!	!	!
8A\	4	.	16g/LL	.	16ee\LL	.	.	.	16g\LL	-ta-	16ee\LL	-ta-	.	.
.	.	.	16f#/	.	16dd\	.	.	.	16f#\JJ	.	16dd\JJ	.	.	.
8AA/J	#	.	16f#/	.	16dd\	.	.	.	16f#\LL	-vit	16dd\LL	-vit	.	.
.	.	.	16e/JJ	.	16cc#X\JJ	.	.	.	16e\JJ	.	16cc#X\JJ	.	.	.
=55	=55	=55	=55	=55	=55	=55	=55	=55	=55	=55	=55	=55	=55	=55
8D\L	.	.	8f#/L	.	8.dd\L	.	2.ryy	2.ryy	8f#\	hu-	8.dd\	hu-	2.ryy	2.ryy
8d\	.	.	8a/J	.	.	.	.	.	8a\	-mi-	.	.	.	.
.	.	.	.	.	16ff#\Jk	.	.	.	.	.	16ff#\	-mi-	.	.
8A\	.	.	4f#/	.	4dd\	.	.	.	4f#\	-les	4dd\	-les	.	.
8F#\J	.	.	.	.	.	.	.	.	.	.	.	.	.	.
4D\	.	.	8r	.	8r	.	.	.	8r	.	8r	.	.	.
.	.	.	8f#/	.	8dd\	.	.	.	8f#\	E-	8dd\	E-	.	.
=56	=56	=56	=56	=56	=56	=56	=56	=56	=56	=56	=56	=56	=56	=56
8r	.	.	4.b/	.	4.dd\	.	2.ryy	2.ryy	4.b\	-ſu-	4.dd\	-su-	2.ryy	2.ryy
8D\L	6_	.	.	.	.	.	.	.	.	.	.	.	.	.
8D\	x	.	.	.	.	.	.	.	.	.	.	.	.	.
8D\	x	.	16a/LL	.	16ccn\LL	.	.	.	16a\LL	.	16cc\LL	.	.	.
.	.	.	16b/JJ	.	16dd\JJ	.	.	.	16b\JJ	.	16dd\JJ	.	.	.
8E\	#	.	16ccn/LL	.	16ee\LL	.	.	.	16ccn\LL	.	16ee\LL	.	.	.
.	.	.	16b/	.	16dd\	.	.	.	16b\JJ	.	16dd\JJ	.	.	.
8E\J	.	.	16a/	.	16cc\	.	.	.	16a\LL	-ri-	16ccn\LL	-ri-	.	.
.	.	.	16g#X/JJ	.	16b\JJ	.	.	.	16g#X\JJ	.	16b\JJ	.	.	.
=57	=57	=57	=57	=57	=57	=57	=57	=57	=57	=57	=57	=57	=57	=57
!LO:TX:t=P:problem=mixed beam	!	!	!	!	!	!	!	!	!	!	!	!	!	!
!	!	!	!	!	!LO:LB:g=original	!	!	!	!	!	!	!	!	!
8AA/L	n_	.	8.a/L	.	8.cc\L	.	2.ryy	2.ryy	8.a\L	-en-	8.cc\L	-en-	2.ryy	2.ryy
16A\L	x	.	.	.	.	.	.	.	.	.	.	.	.	.
16G#X\JJ	x	.	16g#X/Jk	.	16b\Jk	.	.	.	16b\Jk	.	16dd\Jk	.	.	.
8A\L	.	.	4a/	.	4cc\	.	.	.	4a\	-tes	4cc\	-tes	.	.
16E\L	.	.	.	.	.	.	.	.	.	.	.	.	.	.
16Cn\JJ	.	.	.	.	.	.	.	.	.	.	.	.	.	.
4AA/	.	.	8r	.	8r	.	.	.	8r	.	8r	.	.	.
.	.	.	8a/	.	8cc\	.	.	.	8a\	im-	8cc\	im-	.	.
=58	=58	=58	=58	=58	=58	=58	=58	=58	=58	=58	=58	=58	=58	=58
!LO:TX:t=P:problem=niezidentyfikowany znak	!	!	!	!	!	!	!	!	!LO:TX:t=y:mod=	!	!LO:TX:t=y:mod=	!	!	!
!	!	!	!	!	!	!	!	!	!LO:MO:mod=(4.a	!	!	!LO:MO:mod=-ple-	!	!
8r	.	.	4.a/	.	4.cc\	.	2.ryy	2.ryy	4.a\	-ple-	(4.cc\	-le-	2.ryy	2.ryy
8C/L	6_	.	.	.	.	.	.	.	.	.	.	.	.	.
8C/	x	.	.	.	.	.	.	.	.	.	.	.	.	.
!	!	!	!	!	!	!	!	!	!LO:MO:mod=16gLL)	!	!	!	!	!
8C/	x	.	16g/LL	.	16b\LL	.	.	.	16g\LL	.	16b\LL)	.	.	.
.	.	.	16a/JJ	.	16cc\JJ	.	.	.	16a\JJ	.	16cc\JJ	.	.	.
8D/	4	.	16b/LL	.	16dd\LL	.	.	.	16b\LL	.	16dd\LL	.	.	.
.	.	.	16a/	.	16cc\	.	.	.	16a\JJ	.	16cc\JJ	.	.	.
!	!	!	!	!	!	!	!	!	!	!	!LO:LB:g=original	!	!	!
8D/J	3	.	16gn/	.	16b\	.	.	.	16gn\LL	-vit	16b\LL	-vit	.	.
.	.	.	16f#/JJ	.	16a\JJ	.	.	.	16f#\JJ	.	16a\JJ	.	.	.
=59	=59	=59	=59	=59	=59	=59	=59	=59	=59	=59	=59	=59	=59	=59
!LO:TX:t=P:problem=mixed beam	!	!	!	!	!	!	!	!	!	!	!	!	!	!
8GG/L	3	.	8.g/L	.	8.b\L	.	2.ryy	2.ryy	8.g\L	bo-	8.b\L	bo-	2.ryy	2.ryy
16G\L	.	.	.	.	.	.	.	.	.	.	.	.	.	.
16F#\JJ	.	.	16f#/Jk	.	16a\Jk	.	.	.	16a\Jk	.	16cc\Jk	.	.	.
!	!	!	!	!	!	!	!	!	!LO:LB:g=original	!	!	!	!	!
!	!	!	!LO:LB:g=original	!	!	!	!	!	!	!	!	!	!	!
8G\L	.	.	4g/	.	4b\	.	.	.	4g\	-nis	4b\	-nis	.	.
16D\L	.	.	.	.	.	.	.	.	.	.	.	.	.	.
16BB\JJ	.	.	.	.	.	.	.	.	.	.	.	.	.	.
!LO:TX:t=P:problem=mixed beam	!	!	!	!	!	!	!	!	!	!	!	!	!	!
8GG/L	.	.	8r	.	8r	.	.	.	8r	.	8r	.	.	.
8G\J	.	.	8b\	.	8dd\	.	.	.	8b\	et	8dd\	et	.	.
=60	=60	=60	=60	=60	=60	=60	=60	=60	=60	=60	=60	=60	=60	=60
8G\L	6_ 4_	.	4.cc\	.	4.ee\	.	2.ryy	2.ryy	4.cc\	di-	4.ee\	di-	2.ryy	2.ryy
8G\	x x	.	.	.	.	.	.	.	.	.	.	.	.	.
8G\	x x	.	.	.	.	.	.	.	.	.	.	.	.	.
8G\	x x	.	16b\LL	.	16dd\LL	.	.	.	16b\LL	-vi-	16dd\LL	-vi-	.	.
.	.	.	16cc\JJ	.	16ee\JJ	.	.	.	16cc\JJ	.	16ee\JJ	.	.	.
.	.	.	16qqb/	.	16qqgg/	.	.	.	16qqb/	.	.	.	.	.
8G\	4 2	.	8a/L	.	8ff#\L	.	.	.	8a\	-tes	8ff#\	-tes	.	.
8G\J	.	.	16g/L	.	16ee\L	.	.	.	16g\LL	di-	16ee\LL	di-	.	.
.	.	.	16a/JJ	.	16ff#\JJ	.	.	.	16a\JJ	.	16ff#\JJ	.	.	.
=61	=61	=61	=61	=61	=61	=61	=61	=61	=61	=61	=61	=61	=61	=61
!LO:LB:g=original	!	!	!	!	!	!	!	!	!	!	!	!	!	!
8G\L	8_ 3_	.	4.b\	.	4.gg\	.	2.ryy	2.ryy	4.b\	-miſ-	4.gg\	-miſ-	2.ryy	2.ryy
8G\	x x	.	.	.	.	.	.	.	.	.	.	.	.	.
8G\	x x	.	.	.	.	.	.	.	.	.	.	.	.	.
8G\	x x	.	16a\LL	.	16aa\LL	.	.	.	16a\LL	.	16aa\LL	.	.	.
.	.	.	16b\JJ	.	16gg\JJ	.	.	.	16b\JJ	.	16gg\JJ	.	.	.
.	.	.	16qqee/	.	16qqgg/	.	.	.	.	.	.	.	.	.
8G\	r7n_ 5_	.	8dd\L	.	8ffn\L	.	.	.	8dd\	-sit	8ffn\	-sit	.	.
8G\J	x x	.	16cc\L	.	16ee\L	.	.	.	16cc\LL	et	16ee\LL	et	.	.
.	.	.	16dd\JJ	.	16ff\JJ	.	.	.	16dd\JJ	.	16ff\JJ	.	.	.
=62	=62	=62	=62	=62	=62	=62	=62	=62	=62	=62	=62	=62	=62	=62
8G\L	6_ 4_	.	4.cc\	.	4.ee\	.	2.ryy	2.ryy	4.cc\	di-	4.ee\	di-	2.ryy	2.ryy
8G\	x x	.	.	.	.	.	.	.	.	.	.	.	.	.
8G\	x x	.	.	.	.	.	.	.	.	.	.	.	.	.
8G\	x x	.	16b\LL	.	16dd\LL	.	.	.	16b\LL	-vi-	16dd\LL	-vi-	.	.
.	.	.	16cc\JJ	.	16ee\JJ	.	.	.	16cc\JJ	.	16ee\JJ	.	.	.
.	.	.	16qqb/	.	16qqgg/	.	.	.	16qqb/	.	.	.	.	.
8G\	r7#_ 2_	.	8a/L	.	8ff#X\L	.	.	.	8a\	-tes	8ff#X\	-tes	.	.
8G\J	x x	.	16g/L	.	16ee\L	.	.	.	16g\LL	di-	16ee\LL	di-	.	.
.	.	.	16a/JJ	.	16ff#\JJ	.	.	.	16a\JJ	.	16ff#\JJ	.	.	.
=63	=63	=63	=63	=63	=63	=63	=63	=63	=63	=63	=63	=63	=63	=63
!	!	!	!	!	!LO:LB:g=original	!	!	!	!	!	!	!	!	!
8G\L	3_	.	4b\	.	8gg\L	.	2.ryy	2.ryy	4b\	-miſ-	8gg\L	-miſ-	2.ryy	2.ryy
8G\	x x	.	.	.	8dd\J	.	.	.	.	.	8dd\J	.	.	.
8G\	x x	.	4b\	.	8dd\L	.	.	.	4b\	-sit	4dd\	-sit	.	.
8G\	x x	.	.	.	16ee\L	.	.	.	.	.	.	.	.	.
.	.	.	.	.	16ff#\JJ	.	.	.	.	.	.	.	.	.
8G\	.	.	8r	.	16gg\LL	.	.	.	8r	.	8r	.	.	.
.	.	.	.	.	16ff#\	.	.	.	.	.	.	.	.	.
8G\J	.	.	8b\	.	16ee\	.	.	.	8b\	di-	8dd\	di-	.	.
.	.	.	.	.	16dd\JJ	.	.	.	.	.	.	.	.	.
=64	=64	=64	=64	=64	=64	=64	=64	=64	=64	=64	=64	=64	=64	=64
!	!	!	!	!	!	!	!	!	!	!	!LO:LB:g=original	!	!	!
8E\L	6\_ 3_	.	8g/L	.	4.cc#X\	.	2.ryy	2.ryy	4g\	-miſ-	(4.cc#X\	-miſ-	2.ryy	2.ryy
8E\	x x	.	8g/	.	.	.	.	.	.	.	.	.	.	.
8E\	x x	.	8g/	.	.	.	.	.	4g\	-sit	.	.	.	.
8E\	x x	.	8g/	.	8ee\	.	.	.	.	.	8ee\)	.	.	.
8E\	.	.	8g/	.	16gg\LL	.	.	.	4g\	in-	16gg\LL	sit	.	.
.	.	.	.	.	16ee\	.	.	.	.	.	16ee\JJ	.	.	.
!	!	!	!	!	!	!	!	!	!	!	!	!LO:MO:mod=in-	!	!
8E\J	.	.	8g/J	.	16dd\	.	.	.	.	.	16dd\LL	i-	.	.
.	.	.	.	.	16cc#\JJ	.	.	.	.	.	16cc#\JJ	.	.	.
=65	=65	=65	=65	=65	=65	=65	=65	=65	=65	=65	=65	=65	=65	=65
!	!	!	!	!	!	!	!	!	!LO:LB:g=original	!	!	!	!	!
!	!	!	!	!	!LO:SIC:v:s=8cc#\L	!	!	!	!	!	!	!LO:MO:mod=-a-	!	!
8D\L	.	.	8g/L	.	8cc\L	.	2.ryy	2.ryy	4f#\	-a-	8cc\L	-na-	2.ryy	2.ryy
8D\	.	.	8f#/J	.	8dd\J	.	.	.	.	.	8dd\J	.	.	.
8D\	.	.	8r	.	8r	.	.	.	4f#\	-nes	4dd\	-nes	.	.
8D\	.	.	16f#/LL	.	16dd\LL	.	.	.	.	.	.	.	.	.
.	.	.	16a/JJ	.	16ff#\JJ	.	.	.	.	.	.	.	.	.
8D\	.	.	16g/LL	.	16ee\LL	.	.	.	8r	.	8r	.	.	.
.	.	.	16f#/	.	16dd\	.	.	.	.	.	.	.	.	.
8D\J	.	.	16e/	.	16cc#X\	.	.	.	8g\	di-	8dd\	di-	.	.
.	.	.	16f#/JJ	.	16dd\JJ	.	.	.	.	.	.	.	.	.
=66	=66	=66	=66	=66	=66	=66	=66	=66	=66	=66	=66	=66	=66	=66
*	*	*	*tremolo	*	*	*	*	*	*	*	*	*	*	*
8E\L	6\_ 3_	.	8g/L	.	16dd\LL	.	2.ryy	2.ryy	4g\	-miſ-	4.cc#X\	-miſ-	2.ryy	2.ryy
.	.	.	.	.	16cc#X\JJ	.	.	.	.	.	.	.	.	.
8E\	x x	.	8g/	.	4cc#\	.	.	.	.	.	.	.	.	.
8E\	x x	.	8g/	.	.	.	.	.	4g\	-sit	.	.	.	.
8E\	x x	.	8g/	.	8ee\	.	.	.	.	.	8ee\	.	.	.
8E\	.	.	8g/	.	16gg\LL	.	.	.	4g\	in-	16gg\LL	-sit	.	.
.	.	.	.	.	16ee\	.	.	.	.	.	16ee\JJ	.	.	.
!	!	!	!	!	!	!	!	!	!	!	!	!LO:MO:mod=in-	!	!
8E\J	.	.	8g/J	.	16dd\	.	.	.	.	.	16dd\LL	i-	.	.
.	.	.	.	.	16cc#\JJ	.	.	.	.	.	16cc#\JJ	.	.	.
*	*	*	*Xtremolo	*	*	*	*	*	*	*	*	*	*	*
=67	=67	=67	=67	=67	=67	=67	=67	=67	=67	=67	=67	=67	=67	=67
!	!	!	!	!	!LO:SIC:v:s=8cc#\L	!	!	!	!	!	!	!	!	!
!	!	!	!LO:LB:g=original	!	!	!	!	!	!	!LO:MO:mod=-a-	!	!LO:MO:mod=-a-	!	!
4D\	.	.	4f#/	.	8cc\L	.	2.ryy	2.ryy	4f#\	-na-	8cc\L	-na-	2.ryy	2.ryy
.	.	.	.	.	8dd\J	.	.	.	.	.	8dd\J	.	.	.
4DD;/	.	.	4f#;/	.	4dd;\	.	.	.	4f#;\	-nes	4dd;\	-nes	.	.
4r	.	.	4r	.	4r	.	.	.	4r	.	4r	.	.	.
=68	=68	=68	=68	=68	=68	=68	=68	=68	=68	=68	=68	=68	=68	=68
!	!	!	!	!	!	!	!	!	!	!	!	!LO:MO:mod=Su-	!	!
8G\L	.	.	2b/	.	2ee\	.	2.ryy	2.ryy	2b\	Su-	2dd\	ſu-	2.ryy	2.ryy
8G\	.	.	.	.	.	.	.	.	.	.	.	.	.	.
8G\	.	.	.	.	.	.	.	.	.	.	.	.	.	.
8G\	.	.	.	.	.	.	.	.	.	.	.	.	.	.
8G\	.	.	16g/LL	.	16b\LL	.	.	.	16g\LL	-ſce-	16b\LL	-sce-	.	.
.	.	.	16f#/	.	16a\	.	.	.	16f#\JJ	.	16a\JJ	.	.	.
8G\J	.	.	16g/	.	16b\	.	.	.	16g\LL	-pit	16b\LL	-pit	.	.
.	.	.	16a/JJ	.	16cc\JJ	.	.	.	16a\JJ	.	16cc\JJ	.	.	.
=69	=69	=69	=69	=69	=69	=69	=69	=69	=69	=69	=69	=69	=69	=69
!	!	!	!	!	!	!	!	!	!	!	!LO:TX:t=y:mod=	!	!	!
!	!	!	!	!	!	!	!	!	!LO:TX:t=P:problem=niezidentyfikowany znak	!	!	!	!	!
!LO:TX:t=P:problem=niezidentyfikowany znak	!	!	!	!	!LO:LB:g=original	!	!	!	!	!	!	!	!	!
8G\L	.	.	2b\	.	2dd\	.	2.ryy	2.ryy	2b\	I-	2dd\	I-	2.ryy	2.ryy
8G\	.	.	.	.	.	.	.	.	.	.	.	.	.	.
8G\	.	.	.	.	.	.	.	.	.	.	.	.	.	.
8G\	.	.	.	.	.	.	.	.	.	.	.	.	.	.
8G\	6 4	.	8cc\L	.	8ee\L	.	.	.	8cc\	-sra-	8ee\	-sra-	.	.
8G\J	3 2	.	8a\J	.	8ff#\J	.	.	.	8a\	-el	8ff#\	-el	.	.
=70	=70	=70	=70	=70	=70	=70	=70	=70	=70	=70	=70	=70	=70	=70
!	!	!	!	!	!	!	!	!	!	!	!LO:LB:g=original	!	!	!
8G\L	8_ 3_	.	4.b\	.	4.gg\	.	2.ryy	2.ryy	2b\	pu-	4.gg\	pu-	2.ryy	2.ryy
8G\	x x	.	.	.	.	.	.	.	.	.	.	.	.	.
8G\	x x	.	.	.	.	.	.	.	.	.	.	.	.	.
8G\	x x	.	16a\LL	.	16ff#\LL	.	.	.	.	.	16ff#\LL	.	.	.
.	.	.	16b\JJ	.	16gg\JJ	.	.	.	.	.	16gg\JJ	.	.	.
8G\	6_ 4_	.	8cc\L	.	16aa\LL	.	.	.	8cc\	-e-	16aa\LL	-e-	.	.
.	.	.	.	.	16gg\	.	.	.	.	.	16gg\JJ	.	.	.
8G\J	x x	.	16dd\L	.	16ff#\	.	.	.	16dd\LL	-rum	16ff#\LL	-rum	.	.
.	.	.	16cc\JJ	.	16ee\JJ	.	.	.	16cc\JJ	.	16ee\JJ	.	.	.
=71	=71	=71	=71	=71	=71	=71	=71	=71	=71	=71	=71	=71	=71	=71
!	!	!	!	!	!LO:MO:mod=(8.eeL	!	!	!	!	!	!	!	!	!
4G\	x x	.	(8.cc\L	.	8.ee\L	.	2.ryy	2.ryy	8.cc\L	ſu-	8.ee\L	ſu-	2.ryy	2.ryy
.	.	.	32b\LL	.	32dd\LL	.	.	.	32b\LL	.	32dd\LL	.	.	.
!	!	!	!	!	!LO:MO:mod=32eeJJJ)	!	!	!	!	!	!	!	!	!
.	.	.	32cc\JJJ)	.	32ee\JJJ	.	.	.	32cc\JJJ	.	32ee\JJJ	.	.	.
!	!	!	!LO:MO:mod=8bL	!	!	!	!	!	!	!	!	!	!	!
4GG/	3	.	8b|\L	.	8dd\L	.	.	.	4b\	-sum	4dd\	-sum	.	.
.	.	.	16gg\L	.	16bb\L	.	.	.	.	.	.	.	.	.
.	.	.	16ff#\JJ	.	16aa\JJ	.	.	.	.	.	.	.	.	.
!	!	!	!	!	!	!	!	!	!LO:LB:g=original	!	!	!	!	!
8r	.	.	16ee\LL	.	16gg\LL	.	.	.	8b\	re-	16gg\LL	re-	.	.
.	.	.	16dd\	.	16ff#\	.	.	.	.	.	16ff#\JJ	.	.	.
8G\	.	.	16cc\	.	16ee\	.	.	.	8b\	-cor-	16ee\LL	-cor-	.	.
.	.	.	16b\JJ	.	16dd\JJ	.	.	.	.	.	16dd\JJ	.	.	.
=72	=72	=72	=72	=72	=72	=72	=72	=72	=72	=72	=72	=72	=72	=72
4D\	7_	.	16b/LL	.	16dd\LL	.	2.ryy	2.ryy	16b\LL	-da-	16dd\LL	-da-	2.ryy	2.ryy
.	.	.	16a/	.	16cc\	.	.	.	16a\JJ	.	16cc\	.	.	.
.	.	.	16a/	.	16cc\	.	.	.	16a\LL	.	16cc\	.	.	.
.	.	.	16g/JJ	.	16b\JJ	.	.	.	16g\JJ	.	16b\JJ	.	.	.
4D\	x	.	8a\L	.	8cc\L	.	.	.	4a\	-tus	4cc\	-tus	.	.
.	.	.	16ff#\L	.	16aa\L	.	.	.	.	.	.	.	.	.
.	.	.	16ee\JJ	.	16gg\JJ	.	.	.	.	.	.	.	.	.
*	*	*	*	*	*	*	*	*	*	*ij	*	*	*	*
8r	.	.	16dd\LL	.	16ff#\LL	.	.	.	8a\	re-	16ff#\LL	re-	.	.
.	.	.	16cc\	.	16ee\	.	.	.	.	.	16ee\JJ	.	.	.
8F#\	.	.	16b\	.	16dd\	.	.	.	8a\	-cor-	16dd\LL	-cor-	.	.
.	.	.	16a\JJ	.	16cc\JJ	.	.	.	.	.	16cc\JJ	.	.	.
=73	=73	=73	=73	=73	=73	=73	=73	=73	=73	=73	=73	=73	=73	=73
4G\	.	.	16a/LL	.	16cc\LL	.	2.ryy	2.ryy	16a\LL	-da-	16cc\LL	-da-	2.ryy	2.ryy
.	.	.	16g/	.	16b\	.	.	.	16g\	.	16b\	.	.	.
.	.	.	16g/	.	16b\	.	.	.	16g\	.	16b\	.	.	.
.	.	.	16f#/JJ	.	16a\JJ	.	.	.	16f#\JJ	.	16a\JJ	.	.	.
4GG/	.	.	8g/L	.	8b\L	.	.	.	4g\	-tus	4b\	-tus	.	.
*	*	*	*	*	*	*	*	*	*	*Xij	*	*	*	*
.	.	.	16b/L	.	16gg\L	.	.	.	.	.	.	.	.	.
.	.	.	16dd/JJ	.	16ff#\JJ	.	.	.	.	.	.	.	.	.
!	!	!	!LO:LB:g=original	!	!	!	!	!	!	!	!	!	!	!
8r	.	.	16cc/LL	.	16ee\LL	.	.	.	8r	.	8r	.	.	.
.	.	.	16b/	.	16dd\	.	.	.	.	.	.	.	.	.
8G\	.	.	16a/	.	16cc\	.	.	.	8b\	mi-	8dd\	mi-	.	.
.	.	.	16g/JJ	.	16b\JJ	.	.	.	.	.	.	.	.	.
=74	=74	=74	=74	=74	=74	=74	=74	=74	=74	=74	=74	=74	=74	=74
!LO:TX:t=P:problem=mixed beam	!	!	!	!	!	!	!	!	!	!	!	!	!	!
8c\L	6	.	16a/LL	.	16cc\LL	.	2.ryy	2.ryy	16a\LL	-ſe-	16cc\LL	-ſe-	2.ryy	2.ryy
.	.	.	16cc/	.	16ee\	.	.	.	16cc\JJ	.	16ee\JJ	.	.	.
8c\	.	.	16b/	.	16dd\	.	.	.	16b\LL	-ri-	16dd\LL	-ri-	.	.
.	.	.	16a/JJ	.	16cc\JJ	.	.	.	16a\JJ	.	16cc\JJ	.	.	.
!	!	!	!	!	!	!	!	!	!	!	!LO:TX:a:i:t=h:mod=	!	!	!
!	!	!	!	!	!LO:LB:g=original	!	!	!	!	!	!	!	!	!
8d\	4	.	4g/	.	4b\	.	.	.	4g\	-cor-	4b\	-cor-	.	.
8d\	.	.	.	.	.	.	.	.	.	.	.	.	.	.
8D/	3	.	4f#/	.	4a\	.	.	.	8f#\	-di-	8a\	-di-	.	.
!	!	!	!	!	!	!	!	!	!	!	!	!LO:MO:mod=-ae	!	!
8D/J	.	.	.	.	.	.	.	.	8f#\	-ae	8a\	-e	.	.
=75	=75	=75	=75	=75	=75	=75	=75	=75	=75	=75	=75	=75	=75	=75
!	!	!	!	!	!	!	!	!	!	!	!LO:LB:g=original	!	!	!
8G\L	.	.	8.g/L	.	8.b\L	.	2.ryy	2.ryy	8.g\L	ſu-	8.b\L	ſu-	2.ryy	2.ryy
16G\L	.	.	.	.	.	.	.	.	.	.	.	.	.	.
16F#\JJ	.	.	16b/Jk	.	16dd\Jk	.	.	.	16b\Jk	.	16dd\Jk	.	.	.
!LO:TX:t=P:problem=mixed beam	!	!	!	!	!	!	!	!	!	!	!	!	!	!
8G\L	.	.	4g/	.	4b\	.	.	.	4g\	-ae	4b\	-ae	.	.
8GG/	.	.	.	.	.	.	.	.	.	.	.	.	.	.
8BB/	.	.	4r	.	4r	.	.	.	4r	.	4r	.	.	.
8D/J	.	.	.	.	.	.	.	.	.	.	.	.	.	.
=76	=76	=76	=76	=76	=76	=76	=76	=76	=76	=76	=76	=76	=76	=76
!	!	!	!	!	!	!	!	!	!LO:MO:mod=(4.b	!	!	!	!	!
8G\L	.	.	4.b/	.	4.dd\	.	2.ryy	2.ryy	4.b\	ſi-	(4.dd\	ſi-	2.ryy	2.ryy
8G\	.	.	.	.	.	.	.	.	.	.	.	.	.	.
8G\	.	.	.	.	.	.	.	.	.	.	.	.	.	.
!	!	!	!	!	!	!	!	!	!LO:MO:mod=8g)	!LO:MO:mod=.	!	!	!	!
8G\	.	.	8g/	.	8b\	.	.	.	8g\	-cut	8b\)	.	.	.
!	!	!	!	!	!	!	!	!	!LO:LB:g=original	!	!	!	!	!
.	.	.	16qqb/	.	16qqdd/	.	.	.	16qqb/	.	16qqdd/	.	.	.
!	!	!	!	!	!	!	!	!	!	!LO:MO:mod=-cut	!	!	!	!
8G\	4_ 2_	.	8a/L	.	8cc\L	.	.	.	8a\	lo-	8cc\	-cut	.	.
!	!	!	!	!	!	!	!	!	!	!LO:MO:null:mod=lo-	!	!	!	!
8G\J	x x	.	16g/L	.	16b\L	.	.	.	16g\LL	.	16b\LL	lo-	.	.
.	.	.	16a/JJ	.	16cc\JJ	.	.	.	16a\JJ	.	16cc\JJ	.	.	.
=77	=77	=77	=77	=77	=77	=77	=77	=77	=77	=77	=77	=77	=77	=77
8G\L	5_ 3_	.	16b/LL	.	16dd\LL	.	2.ryy	2.ryy	16b\LL	-cu-	16dd\LL	-cu-	2.ryy	2.ryy
.	.	.	16cc/	.	16ee\	.	.	.	16cc\JJ	.	16ee\JJ	.	.	.
8G\	x x	.	16b/	.	16dd\	.	.	.	16b\LL	-tus	16dd\LL	-tus	.	.
.	.	.	16a/JJ	.	16cc\JJ	.	.	.	16a\JJ	.	16cc\JJ	.	.	.
8G\	x x	.	8g/L	.	8b\L	.	.	.	4g\	est	4b\	est	.	.
8G\	x x	.	8g/J	.	8b\J	.	.	.	.	.	.	.	.	.
8G\	x x	.	16g/LL	.	16b\LL	.	.	.	4r	.	4r	.	.	.
.	.	.	16f#/	.	16a\	.	.	.	.	.	.	.	.	.
8G\J	x x	.	16g/	.	16b\	.	.	.	.	.	.	.	.	.
.	.	.	16a/JJ	.	16cc\JJ	.	.	.	.	.	.	.	.	.
=78	=78	=78	=78	=78	=78	=78	=78	=78	=78	=78	=78	=78	=78	=78
!LO:LB:g=original	!	!	!	!	!	!	!	!	!	!	!	!	!	!
8G\L	.	.	4.b/	.	4.dd\	.	2.ryy	2.ryy	4.b\	ad	(4.dd\	ad	2.ryy	2.ryy
8G\	.	.	.	.	.	.	.	.	.	.	.	.	.	.
8G\	.	.	.	.	.	.	.	.	.	.	.	.	.	.
8G\	.	.	8g/	.	8b\	.	.	.	8g\	.	8b\)	.	.	.
.	.	.	16qqb/	.	16qqdd/	.	.	.	16qqb/	.	16qqdd/	.	.	.
8G\	4_ 2_	.	8a/L	.	8cc\L	.	.	.	8a\	pa-	8cc\	pa-	.	.
8G\J	x x	.	16g/L	.	16b\L	.	.	.	16g\LL	-tres	16b\LL	-tres	.	.
.	.	.	16a/JJ	.	16cc\JJ	.	.	.	16a\JJ	.	16cc\JJ	.	.	.
=79	=79	=79	=79	=79	=79	=79	=79	=79	=79	=79	=79	=79	=79	=79
*tremolo	*	*	*	*	*	*	*	*	*	*	*	*	*	*
8G\L	5_3_	.	16b/LL	.	16dd\LL	.	2.ryy	2.ryy	16b\LL	noſ-	16dd\LL	no-	2.ryy	2.ryy
.	.	.	16cc/	.	16ee\	.	.	.	16cc\	.	16ee\	.	.	.
8G\	x x	.	16b/	.	16dd\	.	.	.	16b\	.	16dd\	.	.	.
.	.	.	16a/JJ	.	16cc\JJ	.	.	.	16a\JJ	.	16cc\JJ	.	.	.
8G\	x x	.	8g/L	.	8b\L	.	.	.	4g\	-tros	4b\	-stros	.	.
8G\	x x	.	8g/J	.	8b\J	.	.	.	.	.	.	.	.	.
8G\	x x	.	16g/LL	.	16b\LL	.	.	.	8r	.	8r	.	.	.
.	.	.	16f#/	.	16a\	.	.	.	.	.	.	.	.	.
!LO:TX:t=P:problem=niezidentyfikowany znak	!	!	!	!	!	!	!	!	!	!	!	!	!	!
8G\J	x x	.	16g/	.	16b\	.	.	.	8g\	ad	8b\	ad	.	.
.	.	.	16a/JJ	.	16cc\JJ	.	.	.	.	.	.	.	.	.
*Xtremolo	*	*	*	*	*	*	*	*	*	*	*	*	*	*
=80	=80	=80	=80	=80	=80	=80	=80	=80	=80	=80	=80	=80	=80	=80
!	!	!	!	!	!	!	!	!	!	!	!LO:TX:t=y:mod=	!	!	!
!	!	!	!	!	!	!	!	!	!LO:TX:t=P:problem=niezidentyfikowany znak	!	!	!	!	!
!	!	!	!LO:LB:g=original	!	!	!	!	!	!	!	!	!	!	!
8G\L	.	.	8g/L	.	8b\L	.	2.ryy	2.ryy	8g\L	pat-	8b\L	pat-	2.ryy	2.ryy
8G\	.	.	16f#/L	.	16a\L	.	.	.	16f#\L	.	16a\L	.	.	.
.	.	.	16g/JJ	.	16b\JJ	.	.	.	16g\JJ	.	16b\JJ	.	.	.
8C\	6	.	4a/	.	4cc\	.	.	.	4a\	.	4cc\	.	.	.
8C\	.	.	.	.	.	.	.	.	.	.	.	.	.	.
8D\	.	.	4f#/	.	4a\	.	.	.	4f#\	-res	4a\	-res	.	.
8D\J	.	.	.	.	.	.	.	.	.	.	.	.	.	.
=81	=81	=81	=81	=81	=81	=81	=81	=81	=81	=81	=81	=81	=81	=81
*tremolo	*	*	*	*	*	*	*	*	*	*	*	*	*	*
!	!	!	!	!	!	!	!	!	!	!	!LO:LB:g=original	!	!	!
!	!	!	!	!	!LO:LB:g=original	!	!	!	!	!	!	!	!	!
8GG/L	.	.	16g/LL	.	16b\LL	.	2.ryy	2.ryy	16g\LL	noſ-	16b\LL	noſ-	2.ryy	2.ryy
.	.	.	16f#/	.	16a\	.	.	.	16f#\	.	16a\	.	.	.
8GG/	.	.	16g/	.	16b\	.	.	.	16g\	.	16b\	.	.	.
.	.	.	16a/JJ	.	16cc\JJ	.	.	.	16a\JJ	.	16cc\JJ	.	.	.
8GG/	.	.	8b/L	.	8dd\L	.	.	.	4b\	-tros	4dd\	-tros	.	.
8GG/	.	.	8b/J	.	8dd\J	.	.	.	.	.	.	.	.	.
8GG/	.	.	16cc/LL	.	16ee\LL	.	.	.	8r	.	8r	.	.	.
.	.	.	16b/	.	16dd\	.	.	.	.	.	.	.	.	.
*	*	*	*	*	*	*	*	*	*	*	*	*ij	*	*
8GG/J	.	.	16a/	.	16cc\	.	.	.	8g\	ad	8b\	ad	.	.
.	.	.	16g/JJ	.	16b\JJ	.	.	.	.	.	.	.	.	.
*Xtremolo	*	*	*	*	*	*	*	*	*	*	*	*	*	*
=82	=82	=82	=82	=82	=82	=82	=82	=82	=82	=82	=82	=82	=82	=82
!	!	!	!	!	!	!	!	!	!LO:LB:g=original	!	!	!	!	!
8G\L	.	.	8g/L	.	8b\L	.	2.ryy	2.ryy	8g\	pat-	8b\	pat-	2.ryy	2.ryy
8G\	.	.	16f#/L	.	16a\L	.	.	.	16f#\LL	-res	16a\LL	-res	.	.
.	.	.	16g/JJ	.	16b\JJ	.	.	.	16g\JJ	.	16b\JJ	.	.	.
8C\	6	.	4a/	.	4cc\	.	.	.	4a\	noſ-	4cc\	noſ-	.	.
8C\	.	.	.	.	.	.	.	.	.	.	.	.	.	.
8D\	.	.	4f#/	.	4a\	.	.	.	4f#\	-tros	4a\	-tros	.	.
*	*	*	*	*	*	*	*	*	*	*	*	*Xij	*	*
8D\J	.	.	.	.	.	.	.	.	.	.	.	.	.	.
=83	=83	=83	=83	=83	=83	=83	=83	=83	=83	=83	=83	=83	=83	=83
!	!	!	!LO:MO:mod=(8.gL	!	!	!	!	!	!	!	!	!	!	!
4G\	.	.	8.g/L	.	(8.b\L	.	2.ryy	2.ryy	8.g\	a-	8.b\	a-	2.ryy	2.ryy
!	!	!	!LO:MO:mod=16f#J)	!	!	!	!	!	!	!	!	!	!	!
.	.	.	16f#/Jk	.	16a\Jk)	.	.	.	16f#\	-bra-	16a\	-bra-	.	.
!	!	!	!	!	!LO:MO:mod=8bL	!	!	!	!	!	!	!	!	!
4GG/	.	.	8g/L	.	8b|\L	.	.	.	8g\	-ham	8b\	-ham	.	.
.	.	.	16b/L	.	16gg\L	.	.	.	16b\LL	ad	16gg\LL	ad	.	.
.	.	.	16a/JJ	.	16ff#\JJ	.	.	.	16a\JJ	.	16ff#\JJ	.	.	.
8r	.	.	16g/LL	.	16ee\LL	.	.	.	16g\LL	pa-	16ee\LL	pa-	.	.
.	.	.	16f#/	.	16dd\	.	.	.	16f#\JJ	.	16dd\JJ	.	.	.
8G#X\	6 5	.	16e/	.	16cc\	.	.	.	16e\LL	-tres	16cc\LL	-tres	.	.
.	.	.	16d/JJ	.	16b\JJ	.	.	.	16d\JJ	.	16b\JJ	.	.	.
=84	=84	=84	=84	=84	=84	=84	=84	=84	=84	=84	=84	=84	=84	=84
!	!	!	!LO:MO:mod=(8.dL	!	!	!	!	!	!	!	!	!	!	!
4A\	9 4	.	8.d/L	.	(8.b\L	.	2.ryy	2.ryy	8.d\L	noſ-	8.b\L	noſ-	2.ryy	2.ryy
.	.	.	32c/LL	.	32a\LL	.	.	.	32c\LL	.	32a\LL	.	.	.
!	!	!	!LO:MO:mod=32dJJJ)	!	!	!	!	!	!	!	!	!	!	!
.	.	.	32d/JJJ	.	32b\JJJ)	.	.	.	32d\JJJ	.	32b\JJJ	.	.	.
!	!	!	!	!	!LO:MO:mod=8aL	!	!	!	!	!	!	!	!	!
4AA/	8 3	.	8c/L	.	8a|\L	.	.	.	8c\	-tros	8a\	-tros	.	.
*	*	*	*	*	*	*	*	*	*	*	*	*ij	*	*
.	.	.	16a/L	.	16ff#\L	.	.	.	16a\LL	ad	16ff#\LL	ad	.	.
.	.	.	16g/JJ	.	16ee\JJ	.	.	.	16g\JJ	.	16ee\JJ	.	.	.
8r	.	.	16f#/LL	.	16dd\LL	.	.	.	16f#\LL	pa-	16dd\LL	pa-	.	.
.	.	.	16e/	.	16cc\	.	.	.	16e\JJ	.	16cc\JJ	.	.	.
8F#\	6 5	.	16d/	.	16b\	.	.	.	16d\LL	-tres	16b\LL	-tres	.	.
.	.	.	16c/JJ	.	16a\JJ	.	.	.	16c\JJ	.	16a\JJ	.	.	.
=85	=85	=85	=85	=85	=85	=85	=85	=85	=85	=85	=85	=85	=85	=85
!	!	!	!LO:MO:mod=(8.cL	!	!	!	!	!	!	!	!	!	!	!
4Gn\	9 4	.	8.c/L	.	(8.a/L	.	2.ryy	2.ryy	8.c/L	noſ-	8.a\L	noſ-	2.ryy	2.ryy
.	.	.	32B/LL	.	32g/LL	.	.	.	32B/LL	.	32g\LL	.	.	.
!	!	!	!LO:MO:mod=32cJJJ)	!	!	!	!	!	!	!	!	!	!	!
.	.	.	32c/JJJ	.	32a/JJJ)	.	.	.	32c/JJJ	.	32a\JJJ	.	.	.
!	!	!	!	!	!	!	!	!	!	!	!LO:LB:g=original	!	!	!
4GG/	8 3	.	8B/L	.	8g|/L	.	.	.	8B/	-tros	8g\	-tros	.	.
*	*	*	*	*	*	*	*	*	*	*	*	*Xij	*	*
.	.	.	16B/L	.	16g/L	.	.	.	16B/LL	ad	16g\LL	ad	.	.
.	.	.	16c/JJ	.	16a/JJ	.	.	.	16c/JJ	.	16a\JJ	.	.	.
!	!	!	!LO:LB:g=original	!	!	!	!	!	!	!	!	!	!	!
8r	.	.	16d/LL	.	16b\LL	.	.	.	16d\LL	pa-	16b\LL	pa-	.	.
.	.	.	16e/	.	16cc\	.	.	.	16e\JJ	.	16cc\JJ	.	.	.
!	!	!	!	!	!	!	!	!	!LO:LB:g=original	!	!	!	!	!
8G\	.	.	16f#/	.	16dd\	.	.	.	16f#\LL	-tres	16dd\LL	-tres	.	.
.	.	.	16g/JJ	.	16b\JJ	.	.	.	16g\JJ	.	16b\JJ	.	.	.
=86	=86	=86	=86	=86	=86	=86	=86	=86	=86	=86	=86	=86	=86	=86
!LO:TX:t=P:problem=mixed beam	!	!	!	!	!	!	!	!	!	!	!	!	!	!
!	!	!	!	!	!LO:LB:g=original	!	!	!	!	!	!	!	!	!
8c\L	6	.	16a/LL	.	16cc\LL	.	2.ryy	2.ryy	16a\LL	noſ-	16cc\LL	no-	2.ryy	2.ryy
.	.	.	16b/	.	16dd\	.	.	.	16b\JJ	.	16dd\JJ	.	.	.
8c\	.	.	16cc/	.	16ee\	.	.	.	16cc\LL	-tros	16ee\LL	-stros	.	.
.	.	.	16a/JJ	.	16cc\JJ	.	.	.	16a\JJ	.	16cc\JJ	.	.	.
8d\	4	.	4g/	.	4b\	.	.	.	4g\	a-	4b\	a-	.	.
8d\	.	.	.	.	.	.	.	.	.	.	.	.	.	.
!	!	!	!	!	!	!	!	!	!	!	!LO:TX:t=y:mod=	!	!	!
8D/	3	.	4f#/	.	4a\	.	.	.	4f#\	-bra-	4a\	-bra-	.	.
8D/J	.	.	.	.	.	.	.	.	.	.	.	.	.	.
=87	=87	=87	=87	=87	=87	=87	=87	=87	=87	=87	=87	=87	=87	=87
!LO:TX:t=P:problem=niezidentyfikowany znak	!	!	!	!	!	!	!	!	!	!	!	!	!	!
8G\L	.	.	4.g/	.	4.b\	.	2.ryy	2.ryy	4.g\	-ham	4.b\	-ham	2.ryy	2.ryy
8G\	.	.	.	.	.	.	.	.	.	.	.	.	.	.
8G\	.	.	.	.	.	.	.	.	.	.	.	.	.	.
8G\J	.	.	16f#/LL	.	16a\LL	.	.	.	16f#\LL	et	16a\LL	et	.	.
.	.	.	16g/JJ	.	16b\JJ	.	.	.	16g\JJ	.	16b\JJ	.	.	.
.	.	.	16qqb/	.	16qqdd/	.	.	.	.	.	.	.	.	.
!LO:LB:g=original	!	!	!	!	!	!	!	!	!	!	!	!	!	!
8G\L	4_ 2_	.	8a/L	.	8cc\L	.	.	.	8a\L	se-	8cc\L	se-	.	.
8G\J	x x	.	16g/L	.	16b\L	.	.	.	16g\L	.	16b\L	.	.	.
.	.	.	16a/JJ	.	16cc\JJ	.	.	.	16a\JJ	.	16cc\JJ	.	.	.
=88	=88	=88	=88	=88	=88	=88	=88	=88	=88	=88	=88	=88	=88	=88
8G\L	5 3	.	4.b/	.	4.dd\	.	2.ryy	2.ryy	4.b\	-mi-	4.dd\	-mi-	2.ryy	2.ryy
8G\	.	.	.	.	.	.	.	.	.	.	.	.	.	.
8B\	.	.	.	.	.	.	.	.	.	.	.	.	.	.
8B\	.	.	8g/	.	8b\	.	.	.	8g\	-ni	8b\	-ni	.	.
.	.	.	16qqb/	.	16qqdd/	.	.	.	.	.	16qqdd/	.	.	.
8d\	.	.	8a/L	.	8cc\L	.	.	.	8a\L	e-	8cc\L	e-	.	.
8d\J	.	.	16g/L	.	16b\L	.	.	.	16g\L	.	16b\L	.	.	.
.	.	.	16f#/JJ	.	16a\JJ	.	.	.	16f#\JJ	.	16a\JJ	.	.	.
=89	=89	=89	=89	=89	=89	=89	=89	=89	=89	=89	=89	=89	=89	=89
8G\L	3_	.	4.g/	.	4.b\	.	2.ryy	2.ryy	4.g\	-ius	4.b\	-ius	2.ryy	2.ryy
8G\	x	.	.	.	.	.	.	.	.	.	.	.	.	.
8G\	x	.	.	.	.	.	.	.	.	.	.	.	.	.
8G\	x	.	16f#/LL	.	16a\LL	.	.	.	16f#\LL	e-	16a\LL	e-	.	.
.	.	.	16g/JJ	.	16b\JJ	.	.	.	16g\JJ	.	16b\JJ	.	.	.
.	.	.	16qqb/	.	16qqdd/	.	.	.	.	.	.	.	.	.
8G\	4_ 3_	.	8a/L	.	8cc\L	.	.	.	8a\L	.	8cc\L	.	.	.
8G\J	x x	.	16g/L	.	16b\L	.	.	.	16g\L	.	16b\L	.	.	.
.	.	.	16a/JJ	.	16cc\JJ	.	.	.	16a\JJ	.	16cc\JJ	.	.	.
=90	=90	=90	=90	=90	=90	=90	=90	=90	=90	=90	=90	=90	=90	=90
!	!	!	!	!	!	!	!	!	!	!	!LO:LB:g=original	!	!	!
8G\L	5 3	.	4.b/	.	4.dd\	.	2.ryy	2.ryy	4.b\	-ius	4.dd\	-ius	2.ryy	2.ryy
8G\	.	.	.	.	.	.	.	.	.	.	.	.	.	.
8B\	.	.	.	.	.	.	.	.	.	.	.	.	.	.
8B\	.	.	8g/	.	8b\	.	.	.	8g\	in	8b\	in	.	.
.	.	.	16qqb/	.	16qqdd/	.	.	.	.	.	16qqdd/	.	.	.
8d\	.	.	8a/L	.	8cc\L	.	.	.	8a\	ſae-	8cc\	ſe-	.	.
8d\J	.	.	16g/L	.	16b\L	.	.	.	16g\LL	-cu-	16b\LL	-cu-	.	.
.	.	.	16f#/JJ	.	16a\JJ	.	.	.	16f#\JJ	.	16a\JJ	.	.	.
=91	=91	=91	=91	=91	=91	=91	=91	=91	=91	=91	=91	=91	=91	=91
!	!	!	!	!	!	!LO:DY:a:t=for	!	!	!	!	!	!	!	!
!	!	!	!	!	!	!LO:MO:mod=.	!	!	!	!	!	!	!	!
.	.	.	.	.	8qqg/	f	.	.	.	.	.	.	.	.
!	!	!	!	!LO:DY:a:t=for.	!	!	!	!	!	!	!	!	!	!
!	!	!	!	!	!	!	!	!	!LO:LB:g=original	!	!	!	!	!
!	!	!LO:DY:a:t=for	!	!	!	!	!	!	!	!	!	!	!	!
8G\L	.	f	8b\L	f	2gg\	f	2.ryy	2.ryy	4g\	-la	4b\	-la	2.ryy	2.ryy
8G\	.	.	8b\	.	.	.	.	.	.	.	.	.	.	.
8G\	.	.	8b\	.	.	.	.	.	4r	.	4r	.	.	.
8G\	.	.	8b\	.	.	.	.	.	.	.	.	.	.	.
8G\	.	.	8b\	.	16aa\LL	.	.	.	4r	.	4r	.	.	.
.	.	.	.	.	16gg\	.	.	.	.	.	.	.	.	.
8G\J	.	.	8b\J	.	16ff#\	.	.	.	.	.	.	.	.	.
.	.	.	.	.	16gg\JJ	.	.	.	.	.	.	.	.	.
=92	=92	=92	=92	=92	=92	=92	=92	=92	=92	=92	=92	=92	=92	=92
!	!	!	!LO:LB:g=original	!	!	!	!	!	!	!	!	!	!	!
8G\L	6_ 4_	.	8cc\L	.	4.ee\	.	2.ryy	2.ryy	2.r	.	2.r	.	2.ryy	2.ryy
8G\	x x	.	8cc\	.	.	.	.	.	.	.	.	.	.	.
8G\	x x	.	8cc\	.	.	.	.	.	.	.	.	.	.	.
8G\	x x	.	8cc\	.	16dd\LL	.	.	.	.	.	.	.	.	.
.	.	.	.	.	16ee\JJ	.	.	.	.	.	.	.	.	.
8G\	5 3	.	8b\	.	16dd\LL	.	.	.	.	.	.	.	.	.
.	.	.	.	.	16gg\	.	.	.	.	.	.	.	.	.
8G\J	.	.	8b\J	.	16bb\	.	.	.	.	.	.	.	.	.
.	.	.	.	.	16gg\JJ	.	.	.	.	.	.	.	.	.
=93	=93	=93	=93	=93	=93	=93	=93	=93	=93	=93	=93	=93	=93	=93
!	!	!	!	!	!LO:LB:g=original	!	!	!	!	!	!	!	!	!
8d\L	4	.	8.b\L	.	8.gg\L	.	2.ryy	2.ryy	2.r	.	2.r	.	2.ryy	2.ryy
8d\	.	.	.	.	.	.	.	.	.	.	.	.	.	.
.	.	.	32a\LL	.	32ff#\LL	.	.	.	.	.	.	.	.	.
.	.	.	32b\JJJ	.	32gg\JJJ	.	.	.	.	.	.	.	.	.
8D\	3	.	8a/L	.	8ff#\L	.	.	.	.	.	.	.	.	.
8D\	.	.	8a/	.	16aa\L	.	.	.	.	.	.	.	.	.
.	.	.	.	.	16ff#\JJ	.	.	.	.	.	.	.	.	.
8F#\	6 5	.	8a/	.	16dd\LL	.	.	.	.	.	.	.	.	.
.	.	.	.	.	16ee\	.	.	.	.	.	.	.	.	.
8F#\J	.	.	8a/J	.	16dd\	.	.	.	.	.	.	.	.	.
.	.	.	.	.	16cc\JJ	.	.	.	.	.	.	.	.	.
=94	=94	=94	=94	=94	=94	=94	=94	=94	=94	=94	=94	=94	=94	=94
4G\	4	.	8a/L	.	8.cc\L	.	2.ryy	2.ryy	2.r	.	2.r	.	2.ryy	2.ryy
.	.	.	16g/L	.	.	.	.	.	.	.	.	.	.	.
.	.	.	16a/JJ	.	32b\LL	.	.	.	.	.	.	.	.	.
.	.	.	.	.	32cc\JJJ	.	.	.	.	.	.	.	.	.
4GG/	3	.	4g/	.	8b\L	.	.	.	.	.	.	.	.	.
.	.	.	.	.	16b\L	.	.	.	.	.	.	.	.	.
.	.	.	.	.	16cc\JJ	.	.	.	.	.	.	.	.	.
8r	.	.	8r	.	16dd\LL	.	.	.	.	.	.	.	.	.
.	.	.	.	.	16ee\	.	.	.	.	.	.	.	.	.
8B\	.	.	8d/	.	16ff#\	.	.	.	.	.	.	.	.	.
.	.	.	.	.	16gg\JJ	.	.	.	.	.	.	.	.	.
=95	=95	=95	=95	=95	=95	=95	=95	=95	=95	=95	=95	=95	=95	=95
8c\L	.	.	4.e/	.	4.ee\	.	2.ryy	2.ryy	2.r	.	2.r	.	2.ryy	2.ryy
16c\L	.	.	.	.	.	.	.	.	.	.	.	.	.	.
16B\JJ	.	.	.	.	.	.	.	.	.	.	.	.	.	.
8c\L	.	.	.	.	.	.	.	.	.	.	.	.	.	.
8A\	.	.	16d/LL	.	16dd\LL	.	.	.	.	.	.	.	.	.
.	.	.	16e/JJ	.	16ee\JJ	.	.	.	.	.	.	.	.	.
.	.	.	.	.	16qqgg/	.	.	.	.	.	.	.	.	.
8d\	3_	.	8f#/L	.	8ff#\L	.	.	.	.	.	.	.	.	.
8c\J	x	.	16e/L	.	16ee\L	.	.	.	.	.	.	.	.	.
.	.	.	16f#/JJ	.	16ff#\JJ	.	.	.	.	.	.	.	.	.
=96	=96	=96	=96	=96	=96	=96	=96	=96	=96	=96	=96	=96	=96	=96
!LO:LB:g=original	!	!	!LO:MO:mod=(8.gL	!	!	!	!	!	!	!	!	!	!	!
8B\L	6	.	8.g/L	.	(8.gg\L	.	2.ryy	2.ryy	2.r	.	2.r	.	2.ryy	2.ryy
8B\	.	.	.	.	.	.	.	.	.	.	.	.	.	.
.	.	.	32a/LL	.	32aa\LL	.	.	.	.	.	.	.	.	.
!	!	!	!LO:MO:mod=32bJJJ)	!	!	!	!	!	!	!	!	!	!	!
.	.	.	32b/JJJ	.	32bb\JJJ)	.	.	.	.	.	.	.	.	.
8A\	3	.	8cc\L	.	8ccc\L	.	.	.	.	.	.	.	.	.
8A\	.	.	8cc\J	.	8ccc\J	.	.	.	.	.	.	.	.	.
8G\	3	.	16cc\LL	.	16ccc\LL	.	.	.	.	.	.	.	.	.
.	.	.	16b\	.	16bb\	.	.	.	.	.	.	.	.	.
8G\J	.	.	16dd\	.	16ddd\	.	.	.	.	.	.	.	.	.
.	.	.	16b\JJ	.	16bb\JJ	.	.	.	.	.	.	.	.	.
=97	=97	=97	=97	=97	=97	=97	=97	=97	=97	=97	=97	=97	=97	=97
!LO:TX:t=P:problem=mixed beam	!	!	!	!	!	!	!	!	!	!	!	!	!	!
8c\L	6	.	16cc\LL	.	16aa\LL	.	2.ryy	2.ryy	2.r	.	2.r	.	2.ryy	2.ryy
.	.	.	16dd\	.	16bb\	.	.	.	.	.	.	.	.	.
8c\	.	.	16ee\	.	16ccc\	.	.	.	.	.	.	.	.	.
.	.	.	16cc\JJ	.	16aa\JJ	.	.	.	.	.	.	.	.	.
8d\	4	.	4b\	.	4gg\	.	.	.	.	.	.	.	.	.
8d\	.	.	.	.	.	.	.	.	.	.	.	.	.	.
8D/	3	.	4a\	.	4ff#\	.	.	.	.	.	.	.	.	.
8D/J	.	.	.	.	.	.	.	.	.	.	.	.	.	.
=98	=98	=98	=98	=98	=98	=98	=98	=98	=98	=98	=98	=98	=98	=98
!	!	!LO:MO:null:mod=!LO&colon;DY&colon;ed=brack	!	!	!	!	!	!	!	!	!	!	!	!
!	!	!	!	!LO:DY:a:t=p.	!	!LO:DY:a:t=p.	!	!	!	!	!	!	!	!
8G\L	.	p	4.b\	p	4.gg\	p	2.ryy	2.ryy	2.r	.	2.r	.	2.ryy	2.ryy
8G\	.	.	.	.	.	.	.	.	.	.	.	.	.	.
8G\	.	.	.	.	.	.	.	.	.	.	.	.	.	.
8G\	.	.	16a\LL	.	16aa\LL	.	.	.	.	.	.	.	.	.
.	.	.	16b\JJ	.	16gg\JJ	.	.	.	.	.	.	.	.	.
!	!	!	!	!	!LO:LB:g=original	!	!	!	!	!	!	!	!	!
!	!	!	!LO:LB:g=original	!	!	!	!	!	!	!	!	!	!	!
.	.	.	16qqee/	.	16qqgg/	.	.	.	.	.	.	.	.	.
8G\	r7n_ 5_	.	8dd\L	.	8ffn\L	.	.	.	.	.	.	.	.	.
8G\J	x x	.	16cc\L	.	16ee\L	.	.	.	.	.	.	.	.	.
.	.	.	16dd\JJ	.	16ff\JJ	.	.	.	.	.	.	.	.	.
=99	=99	=99	=99	=99	=99	=99	=99	=99	=99	=99	=99	=99	=99	=99
8G\L	6_ 4_	.	8cc\	.	8ee\	.	2.ryy	2.ryy	2.r	.	2.r	.	2.ryy	2.ryy
!	!	!LO:MO:null:mod=!LO&colon;DY&colon;ed=brack	!	!	!	!LO:MO:null:mod=!LO&colon;DY&colon;ed=brack	!	!	!	!	!	!	!	!
!	!	!	!	!LO:DY:b:t=f.	!	!	!	!	!	!	!	!	!	!
8G\	x x	f	4ee\	f	4ccc\	f	.	.	.	.	.	.	.	.
8G\	x x	.	.	.	.	.	.	.	.	.	.	.	.	.
!	!	!	!	!	!	!LO:DY:b:t=for	!	!	!	!	!	!	!	!
!	!	!	!	!	!	!LO:MO:mod=.	!	!	!	!	!	!	!	!
8G\	x x	.	8cc\	.	8aa\	f	.	.	.	.	.	.	.	.
.	.	.	16qqb/	.	16qqgg/	.	.	.	.	.	.	.	.	.
8G\	r7# 2	.	8a/L	.	8ff#X\L	.	.	.	.	.	.	.	.	.
8G\J	.	.	16g/L	.	16ee\L	.	.	.	.	.	.	.	.	.
.	.	.	16a/JJ	.	16ff#\JJ	.	.	.	.	.	.	.	.	.
=100	=100	=100	=100	=100	=100	=100	=100	=100	=100	=100	=100	=100	=100	=100
!	!	!LO:MO:null:mod=!LO&colon;DY&colon;ed=brack	!	!LO:DY:a	!	!	!	!	!	!	!	!	!	!
!	!	!	!	!	!	!LO:DY:b:t=p.	!	!	!	!	!	!	!	!
8G\L	8_ 3_	p	4.b\	p	4.gg\	p	2.ryy	2.ryy	2.r	.	2.r	.	2.ryy	2.ryy
8G\	x x	.	.	.	.	.	.	.	.	.	.	.	.	.
8G\	x x	.	.	.	.	.	.	.	.	.	.	.	.	.
8G\	x x	.	16a\LL	.	16aa\LL	.	.	.	.	.	.	.	.	.
.	.	.	16b\JJ	.	16gg\JJ	.	.	.	.	.	.	.	.	.
.	.	.	16qqee/	.	16qqgg/	.	.	.	.	.	.	.	.	.
8G\	r7n_ 5_	.	8dd\L	.	8ffn\L	.	.	.	.	.	.	.	.	.
8G\J	x x	.	16cc\L	.	16ee\L	.	.	.	.	.	.	.	.	.
.	.	.	16dd\JJ	.	16ff\JJ	.	.	.	.	.	.	.	.	.
=101	=101	=101	=101	=101	=101	=101	=101	=101	=101	=101	=101	=101	=101	=101
8G\L	6_ 4_	.	8cc\	.	8ee\	.	2.ryy	2.ryy	2.r	.	2.r	.	2.ryy	2.ryy
!	!	!LO:MO:null:mod=!LO&colon;DY&colon;ed=brack	!	!	!	!	!	!	!	!	!	!	!	!
!	!	!	!	!LO:DY:b:t=for	!	!	!	!	!	!	!	!	!	!
8G\	x x	f	4ee\	f	4ccc\	.	.	.	.	.	.	.	.	.
8G\	x x	.	.	.	.	.	.	.	.	.	.	.	.	.
8G\	x x	.	8cc\	.	8aa\	.	.	.	.	.	.	.	.	.
.	.	.	16qqb/	.	8qqgg/	.	.	.	.	.	.	.	.	.
8G\	r7# 2	.	8a/L	.	8ff#X\L	.	.	.	.	.	.	.	.	.
8G\J	.	.	16g/L	.	16ee\L	.	.	.	.	.	.	.	.	.
.	.	.	16a/JJ	.	16ff#\JJ	.	.	.	.	.	.	.	.	.
=102	=102	=102	=102	=102	=102	=102	=102	=102	=102	=102	=102	=102	=102	=102
4G\	.	.	4a/	.	4ff#\	.	2.ryy	2.ryy	2.r	.	2.r	.	2.ryy	2.ryy
4GG/	.	.	4b/	.	4gg\	.	.	.	.	.	.	.	.	.
4r	.	.	4r	.	4r	.	.	.	.	.	.	.	.	.
==	==	==	==	==	==	==	==	==	==	==	==	==	==	==
*-	*-	*-	*-	*-	*-	*-	*-	*-	*-	*-	*-	*-	*-	*-
!!!system-decoration: [(g1)][(g2)][(g3)]s9
!!!RDF**kern: > = above
!!!RDF**kern: < = below
!!!RDF**kern: | = vertical stroke
!!!filter-modern: sic -sq | autostem -r | humtr -p | shed -k -e "s/([()[]_])[><]/$1/g" | shed -e "s/TX(.*):t=P:/tx$1:t=P:/LG" | shed -k -e "s/([^a-gA-Gn#X-])[<>]/$1/g" | shed -e "s/^(\d+[\/\\]right)/$1yy/I; s/^(\d+[\/\\]left)/$1yy/I" | shed -e "s/LO:DY:t=/LO:dy:t=/L" | shed -e "s/LO:DY:(a|b|rj)/LO:dy:$1/L" | modori -m
!!!ENC: Filip Voros
!!!END: 2021-11-27
!!!EED: Kamil Watkowski
!!!EEV: 2021-12-09
!!!ENC-modern: Leszek Kubiak
!!!END-modern: 2022-07-28
